!!!!SEGMENT: pl-wn--mus-iii-65-947-cim--014_sowinski-wojciech--swiety-wojciech-meczennik-no-12-branki.krn
!!!cenid: 18xx:3607
!!!COM: Sowiński, Wojciech
!!!COM-rismid: pe30008543
!!!CDT: ~1803-1880/03/05
!!!CNT:
!!!GTL: Święty Wojciech męczennik
!!!OTL: No. 12. Branki
!!!PDT: 1877
!!!AGN:
!!!SMS-siglum: PL-Wn
!!!SMS-shelfmark: Mus.III.65.947 Cim.
!!!SMS-shelfwork: 014 G
!!!SMS-variant:
!!!SMS-altvar:
!!!NIFC-rismid:
!!!URL-scan: https://polona.pl/item/swiety-wojciech-meczennik-oratorjo-w-trzech-czesciach-dzielo-66-spiew-z-fortepianem,MTkzODI1Mzc/242/#item
!!!ONB-nifc: UWAGA: oratorium zawiera w źródle 28 numerów podzielonych na 30 plików (rozdzielenie w No. 6 - osobno Recitativo oraz Aria matki i No. 10 - osobno Recitativo, arja i chór oraz Sen). Polecam widok miniatur na Polonie. Uwaga co do obsady: prosimy umieszczać tylko partie występujące w danym numerze (nie całą obsadę oratorium)
!!!AIN: 1 alto 1 piano 2 soprn 1 vox
!!!key: f
**kern	**kern	**dynam	**kern	**text	**dynam	**kern	**text	**dynam	**kern	**text	**dynam	**kern	**text	**dynam
*part5	*part5	*part5	*part4	*part4	*part4	*part3	*part3	*part3	*part2	*part2	*part2	*part1	*part1	*part1
*group3	*group3	*	*group2	*group2	*	*group2	*group2	*	*group2	*group2	*	*group1	*group1	*
*staff6	*staff5	*	*staff4	*staff4	*	*staff3	*staff3	*	*staff2	*staff2	*	*staff1	*staff1	*
*I"PIANO	*	*	*I"ALT	*	*	*I"M°SOPRAN	*	*	*I"SOPRAN	*	*	*I"Solo	*	*
*Ipiano	*Ipiano	*	*Ialto	*	*	*Isoprn	*	*	*Isoprn	*	*	*Ivox	*	*
*ICklav	*ICklav	*	*ICvox	*	*	*ICvox	*	*	*ICvox	*	*	*ICvox	*	*
*clefF4	*clefG2	*	*clefG2	*	*	*clefG2	*	*	*clefG2	*	*	*clefG2	*	*
*k[b-e-a-d-]	*k[b-e-a-d-]	*	*k[b-e-a-d-]	*	*	*k[b-e-a-d-]	*	*	*k[b-e-a-d-]	*	*	*k[b-e-a-d-]	*	*
*f:	*f:	*	*f:	*	*	*f:	*	*	*f:	*	*	*f:	*	*
*M4/4	*M4/4	*	*M4/4	*	*	*M4/4	*	*	*M4/4	*	*	*M4/4	*	*
*met(c)	*met(c)	*	*met(c)	*	*	*met(c)	*	*	*met(c)	*	*	*met(c)	*	*
=1	=1	=1	=1	=1	=1	=1	=1	=1	=1	=1	=1	=1	=1	=1
!	!LO:TX:a:B:t=Andante con moto.	!	!	!	!	!	!	!	!	!	!	!LO:TX:a:B:t=Andante con moto.	!	!
(4FF/	8cc 8a-/	p	1r	.	.	1r	.	.	1r	.	.	1r	.	.
.	4cc 4a-/	<	.	.	.	.	.	.	.	.	.	.	.	.
4AA-/	.	.	.	.	.	.	.	.	.	.	.	.	.	.
.	4cc 4a-/	.	.	.	.	.	.	.	.	.	.	.	.	.
4C/	.	.	.	.	.	.	.	.	.	.	.	.	.	.
.	4cc 4a-/	.	.	.	.	.	.	.	.	.	.	.	.	.
4F\	.	.	.	.	.	.	.	.	.	.	.	.	.	.
.	[8cc [8a-/	.	.	.	.	.	.	.	.	.	.	.	.	.
=2	=2	=2	=2	=2	=2	=2	=2	=2	=2	=2	=2	=2	=2	=2
4A-\	8cc] 8a-/]	[	1r	.	.	1r	.	.	1r	.	.	1r	.	.
.	4cc 4a-/	.	.	.	.	.	.	.	.	.	.	.	.	.
4c\)	.	.	.	.	.	.	.	.	.	.	.	.	.	.
.	4cc 4a-/	.	.	.	.	.	.	.	.	.	.	.	.	.
(4en\	.	.	.	.	.	.	.	.	.	.	.	.	.	.
.	4cc 4a-/	.	.	.	.	.	.	.	.	.	.	.	.	.
4f\)	.	.	.	.	.	.	.	.	.	.	.	.	.	.
.	8cc 8a-/	.	.	.	.	.	.	.	.	.	.	.	.	.
=3	=3	=3	=3	=3	=3	=3	=3	=3	=3	=3	=3	=3	=3	=3
(4e-X\	8cc 8an/	.	1r	.	.	1r	.	.	1r	.	.	1r	.	.
.	4cc 4a/	.	.	.	.	.	.	.	.	.	.	.	.	.
4f\)	.	.	.	.	.	.	.	.	.	.	.	.	.	.
.	8cc 8a/	.	.	.	.	.	.	.	.	.	.	.	.	.
!	!	!LO:HP:t=cres.	!	!	!	!	!	!	!	!	!	!	!	!
(4d-\	8dd- 8b-/	<	.	.	.	.	.	.	.	.	.	.	.	.
.	4dd- 4b-/	.	.	.	.	.	.	.	.	.	.	.	.	.
4f\)	.	.	.	.	.	.	.	.	.	.	.	.	.	.
.	8dd- 8b-/	.	.	.	.	.	.	.	.	.	.	.	.	.
=4	=4	=4	=4	=4	=4	=4	=4	=4	=4	=4	=4	=4	=4	=4
(4c\	8ee- 8cc\	.	1r	.	.	1r	.	.	1r	.	.	1r	.	.
.	4ee- 4cc\	.	.	.	.	.	.	.	.	.	.	.	.	.
4f\)	.	.	.	.	.	.	.	.	.	.	.	.	.	.
.	8ee- 8cc\	.	.	.	.	.	.	.	.	.	.	.	.	.
(4B-\	8ff 8dd-\	.	.	.	.	.	.	.	.	.	.	.	.	.
.	4ff 4dd-^\	.	.	.	.	.	.	.	.	.	.	.	.	.
4f\)	.	.	.	.	.	.	.	.	.	.	.	.	.	.
.	8dd- 8b-\	.	.	.	.	.	.	.	.	.	.	.	.	.
=5	=5	=5	=5	=5	=5	=5	=5	=5	=5	=5	=5	=5	=5	=5
(4c\	8cc 8a- 8f/	<	1r	.	.	1r	.	.	1r	.	.	1r	.	.
.	4cc 4a- 4f/	.	.	.	.	.	.	.	.	.	.	.	.	.
4d-\	.	.	.	.	.	.	.	.	.	.	.	.	.	.
.	4cc 4a- 4f/	.	.	.	.	.	.	.	.	.	.	.	.	.
4c\	.	.	.	.	.	.	.	.	.	.	.	.	.	.
.	4cc 4a- 4f/	.	.	.	.	.	.	.	.	.	.	.	.	.
4Bn\	.	.	.	.	.	.	.	.	.	.	.	.	.	.
.	8cc 8a- 8f/	[	.	.	.	.	.	.	.	.	.	.	.	.
!!LO:LB:g=original
=6	=6	=6	=6	=6	=6	=6	=6	=6	=6	=6	=6	=6	=6	=6
!	!	!	!	!	!	!	!	!	!LO:TX:a:B:t=BRANKI.	!	!	!	!	!
4c\	8cc 8g 8f'>/	.	1r	.	.	1r	.	.	2r	.	.	1r	.	.
.	4cc 4g 4f/	.	.	.	.	.	.	.	.	.	.	.	.	.
4B-X\	.	.	.	.	.	.	.	.	.	.	.	.	.	.
.	4b- 4g 4en/	.	.	.	.	.	.	.	.	.	.	.	.	.
4A-\	.	.	.	.	.	.	.	.	4.cc\	Gdy	p	.	.	.
.	4cc 4a- 4f/	.	.	.	.	.	.	.	.	.	.	.	.	.
4G\)	.	.	.	.	.	.	.	.	.	.	.	.	.	.
.	8cc 8b- 8en/	.	.	.	.	.	.	.	8cc\	Oj-	.	.	.	.
=7	=7	=7	=7	=7	=7	=7	=7	=7	=7	=7	=7	=7	=7	=7
(4F 4FF/	8cc 8a- 8f/	sf	2r	.	.	2r	.	.	2.cc\	-czyz-	.	1r	.	.
.	4cc 4a-/	p	.	.	.	.	.	.	.	.	.	.	.	.
4AA-/	.	.	.	.	.	.	.	.	.	.	.	.	.	.
.	4cc 4a-/	.	.	.	.	.	.	.	.	.	.	.	.	.
!	!	!	!	!	!	!	!	!LO:DY:a	!	!	!	!	!	!
4C/	.	.	4f/	Gdy	p	4a-/	Gdy	p	.	.	.	.	.	.
.	4cc 4a-/	.	.	.	.	.	.	.	.	.	.	.	.	.
4F\	.	.	4f/	Oj-	.	4a-/	Oj-	.	4cc\	-na	.	.	.	.
.	[8cc [8a-/	.	.	.	.	.	.	.	.	.	.	.	.	.
=8	=8	=8	=8	=8	=8	=8	=8	=8	=8	=8	=8	=8	=8	=8
4A-\	8cc] 8a-/]	.	2f/	-czyz-	.	2.a-/	-czyz-	.	2.cc\	pod	.	1r	.	.
.	4cc 4a-/	.	.	.	.	.	.	.	.	.	.	.	.	.
4c\)	.	.	.	.	.	.	.	.	.	.	.	.	.	.
.	4cc 4a-/	.	.	.	.	.	.	.	.	.	.	.	.	.
(4en\	.	.	4en/	.	.	.	.	.	.	.	.	.	.	.
.	4cc 4g/	.	.	.	.	.	.	.	.	.	.	.	.	.
4f\)	.	.	4f/	-na	.	4a-/	-na	.	4cc\	broń	.	.	.	.
.	8cc 8a-/	.	.	.	.	.	.	.	.	.	.	.	.	.
=9	=9	=9	=9	=9	=9	=9	=9	=9	=9	=9	=9	=9	=9	=9
(4FF/	8dd- 8b-^>/	.	[2f^>/	pod	.	(2b-^\	pod	.	2dd-^\	wo-	.	1r	.	.
.	4dd- 4b-/	.	.	.	.	.	.	.	.	.	.	.	.	.
4BB-/	.	.	.	.	.	.	.	.	.	.	.	.	.	.
.	4dd- 4b-/	.	.	.	.	.	.	.	.	.	.	.	.	.
4D-\	.	.	4f/]	.	.	4dd-\)	.	.	4dd-\	-ła,	.	.	.	.
.	4dd- 4b-/	.	.	.	.	.	.	.	.	.	.	.	.	.
4F\	.	.	(8e-X/L	broń	.	(8cc\L	broń	.	4r	.	.	.	.	.
.	[8dd- [8b-/	.	8d-/J)	.	.	8b-\J)	.	.	.	.	.	.	.	.
=10	=10	=10	=10	=10	=10	=10	=10	=10	=10	=10	=10	=10	=10	=10
4B-\	8dd-] 8b-/]	.	(2d-/	wo-	.	1b-	wo-	.	4r	.	.	1r	.	.
.	4dd- 4b-/	.	.	.	.	.	.	.	.	.	.	.	.	.
4d-\)	.	.	.	.	.	.	.	.	4dd-\	Ja	.	.	.	.
.	4dd- 4b-/	.	.	.	.	.	.	.	.	.	.	.	.	.
(4en\	.	.	4en/	.	.	.	.	.	4dd-\	mam	.	.	.	.
.	4dd- 4b-/	.	.	.	.	.	.	.	.	.	.	.	.	.
4f\)	.	.	4f/)	.	.	.	.	.	8.dd-\	bied-	.	.	.	.
.	8dd- 8b-/	.	.	.	.	.	.	.	.	.	.	.	.	.
.	.	.	.	.	.	.	.	.	16dd-\	-na	.	.	.	.
!!LO:LB:g=original
=11	=11	=11	=11	=11	=11	=11	=11	=11	=11	=11	=11	=11	=11	=11
(4FF/	8cc 8b- 8g/	sf	4en/	ła,	.	4g/	-ła,	.	2cc\	mam	.	1r	.	.
.	4cc 4b- 4g/	.	.	.	.	.	.	.	.	.	.	.	.	.
4BB-/	.	.	8r	.	.	8r	.	.	.	.	.	.	.	.
.	4cc 4b- 4g/	.	8c/	Ja	.	8cc\	Ja	.	.	.	.	.	.	.
4C/	.	.	[2c^>/	mam	.	[2cc^\	mam	.	2r	.	.	.	.	.
.	4cc 4b- 4g/	.	.	.	.	.	.	.	.	.	.	.	.	.
4En\	.	.	.	.	.	.	.	.	.	.	.	.	.	.
.	[8cc [>8b- [8g/	.	.	.	.	.	.	.	.	.	.	.	.	.
=12	=12	=12	=12	=12	=12	=12	=12	=12	=12	=12	=12	=12	=12	=12
!	!	!	!	!	!	!	!	!	!	!	!LO:DY:a	!	!	!
4G\	8cc] 8b-] 8g/]	.	4c/]	.	.	4cc\]	.	.	2.cc\	tyl-	>	1r	.	.
.	4cc 4b- 4g/	.	.	.	.	.	.	.	.	.	.	.	.	.
4B-\	.	.	4r	bied-	.	8b-\	bied-	.	.	.	.	.	.	.
.	4cc 4b- 4g/	.	.	.	.	8a-\	-na	.	.	.	.	.	.	.
4c\)	.	.	4.en/	-tyl-	.	[4g/	tyl-	.	.	.	.	.	.	.
.	4cc 4b- 4g/	.	.	.	.	.	.	.	.	.	.	.	.	.
!	!	!	!	!	!	!	!	!	!LO:TX:t=P:problem=brak pauzy	!	!	!	!	!
4en\	.	.	.	.	.	8g/]	.	.	8ryy	.	.	.	.	.
.	8cc 8b- 8g/	.	8e/	-ko	.	8b-\	-ko	.	8cc\	-ko	]	.	.	.
=13	=13	=13	=13	=13	=13	=13	=13	=13	=13	=13	=13	=13	=13	=13
(4F\	8cc 8a-/	.	2f/	płacz!	.	2a-/	płacz!	.	2f/	płacz!	.	1r	.	.
.	4cc 4a-/	.	.	.	.	.	.	.	.	.	.	.	.	.
4f\	.	.	.	.	.	.	.	.	.	.	.	.	.	.
.	4cc 4a-/	.	.	.	.	.	.	.	.	.	.	.	.	.
4e-X\	.	.	2r	.	.	2r	.	.	2r	.	.	.	.	.
.	4cc 4a-/	.	.	.	.	.	.	.	.	.	.	.	.	.
4d-\	.	.	.	.	.	.	.	.	.	.	.	.	.	.
.	8cc 8a-/	.	.	.	.	.	.	.	.	.	.	.	.	.
=14	=14	=14	=14	=14	=14	=14	=14	=14	=14	=14	=14	=14	=14	=14
4c\	8cc 8g 8f/	.	2r	.	.	2r	.	.	2r	.	.	1r	.	.
.	4cc 4g 4f/	.	.	.	.	.	.	.	.	.	.	.	.	.
4B-\	.	.	.	.	.	.	.	.	.	.	.	.	.	.
.	4cc 4g 4en/	.	.	.	.	.	.	.	.	.	.	.	.	.
4A-\	.	.	4r	.	.	4r	.	.	4r	.	.	.	.	.
.	4cc 4f/	.	.	.	.	.	.	.	.	.	.	.	.	.
!	!	!	!	!	!LO:DY:a	!	!	!LO:DY:a	!	!	!	!	!	!
4G\)	.	.	4c/	Tu	p	4cc\	Tu	p	4cc\	Tu	p	.	.	.
.	8cc 8b- 8e/	.	.	.	.	.	.	.	.	.	.	.	.	.
=15	=15	=15	=15	=15	=15	=15	=15	=15	=15	=15	=15	=15	=15	=15
(4F 4FF/	8cc 8a- 8f/	sf	2.f/	roz-	.	2.a-\	roz-	.	2.cc\	roz-	.	1r	.	.
.	4cc 4a-/	p	.	.	.	.	.	.	.	.	.	.	.	.
4AA-/	.	.	.	.	.	.	.	.	.	.	.	.	.	.
.	4cc 4a-/	.	.	.	.	.	.	.	.	.	.	.	.	.
4C/	.	.	.	.	.	.	.	.	.	.	.	.	.	.
.	4cc 4a-/	.	.	.	.	.	.	.	.	.	.	.	.	.
4F\	.	.	4f/	-pacz	.	4a-\	-pacz	.	4cc\	-pacz	.	.	.	.
!	!LO:TX:t=P:problem=brak początków łuków	!	!	!	!	!	!	!	!	!	!	!	!	!
.	[8cc [8a-/	.	.	.	.	.	.	.	.	.	.	.	.	.
!!LO:PB:g=original
=16	=16	=16	=16	=16	=16	=16	=16	=16	=16	=16	=16	=16	=16	=16
4A-\	8cc] 8a-/]	.	2f/	nę-	.	2a-/	nę-	.	2cc\	nę-	.	1r	.	.
.	4cc 4a-/	.	.	.	.	.	.	.	.	.	.	.	.	.
4c\	.	.	.	.	.	.	.	.	.	.	.	.	.	.
.	4cc 4a-/	.	.	.	.	.	.	.	.	.	.	.	.	.
4en\)	.	.	4en/	-dza	.	4g/	-dza	.	4cc\	-dza	.	.	.	.
.	4cc 4g/	.	.	.	.	.	.	.	.	.	.	.	.	.
4f\	.	.	4f/	do-	.	4a-/	do-	.	4cc\	do-	.	.	.	.
.	8cc 8a-/	.	.	.	.	.	.	.	.	.	.	.	.	.
=17	=17	=17	=17	=17	=17	=17	=17	=17	=17	=17	=17	=17	=17	=17
!	!	!	!	!	!LO:DY:a	!	!	!LO:DY:a	!	!	!LO:DY:a	!	!	!
(4FF/	8dd- 8b-/	.	2f/	-ko-	>	2b-/	-ko-	>	2dd-\	-ko-	>	1r	.	.
!	!	!LO:HP:t=cres	!	!	!	!	!	!	!	!	!	!	!	!
.	4dd- 4b-/	<	.	.	.	.	.	.	.	.	.	.	.	.
4BB-/	.	.	.	.	.	.	.	.	.	.	.	.	.	.
.	4dd- 4b-/	.	.	.	.	.	.	.	.	.	.	.	.	.
4D-\	.	.	4f/	-ła	]	4b-/	-ła	]	4dd-\	-ła	]	.	.	.
.	4dd- 4b-/	.	.	.	.	.	.	.	.	.	.	.	.	.
4F\	.	.	4r	.	.	4r	.	.	4r	.	.	.	.	.
.	[8dd- [8b-\	.	.	.	.	.	.	.	.	.	.	.	.	.
=18	=18	=18	=18	=18	=18	=18	=18	=18	=18	=18	=18	=18	=18	=18
4B-\	8dd-] 8b-\]	.	2r	.	.	4b-\	Bo-	.	2r	.	.	1r	.	.
.	4dd- 4b-\	.	.	.	.	.	.	.	.	.	.	.	.	.
4An\	.	.	.	.	.	4cc\	-że,	.	.	.	.	.	.	.
.	4dd- 4b-\	.	.	.	.	.	.	.	.	.	.	.	.	.
4B-\	.	.	4r	.	.	4dd-\	Bo-	.	4r	.	.	.	.	.
.	4dd- 4b-\	.	.	.	.	.	.	.	.	.	.	.	.	.
4F-X\)	.	.	4f-X/	Ty	.	4b-\	-że	.	4dd-\	Ty	.	.	.	.
.	8dd- 8b-\	.	.	.	.	.	.	.	.	.	.	.	.	.
=19	=19	=19	=19	=19	=19	=19	=19	=19	=19	=19	=19	=19	=19	=19
*^	*	*	*	*	*	*	*	*	*	*	*	*	*	*
(4E-/	2E-\	8cc 8a-\	.	2e-/	Bo-	.	[2a-/	Ty	.	2cc\	Bo-	.	1r	.	.
.	.	4cc 4a-\	.	.	.	.	.	.	.	.	.	.	.	.	.
4A-X/	.	.	.	.	.	.	.	.	.	.	.	.	.	.	.
.	.	4cc 4a-\	.	.	.	.	.	.	.	.	.	.	.	.	.
4G/	2ryy	.	.	4.e-/	-że	.	4.a-/]	.	.	4.cc\	-że	.	.	.	.
.	.	4cc 4a-\	.	.	.	.	.	.	.	.	.	.	.	.	.
4F/)	.	.	.	.	.	.	.	.	.	.	.	.	.	.	.
.	.	8cc 8a-\	.	8e-/	nas	.	8a-/	nas	.	8cc\	nas	.	.	.	.
*v	*v	*	*	*	*	*	*	*	*	*	*	*	*	*	*
=20	=20	=20	=20	=20	=20	=20	=20	=20	=20	=20	=20	=20	=20	=20
(4E-\	8b- 8a- 8e-^/	.	[2e-/	pom-	.	(2a-/	pom-	.	[2b-^\	pom-	.	1r	.	.
.	4b- 4a- 4e-/	.	.	.	.	.	.	.	.	.	.	.	.	.
4Dn\	.	.	.	.	.	.	.	.	.	.	.	.	.	.
.	8b- 8a- 8e-/	.	.	.	.	.	.	.	.	.	.	.	.	.
4E-\	8b- 8g 8e-^/	.	4.e-/]	.	.	4.g/)	.	.	4.b-\]	.	.	.	.	.
.	4b- 4g 4e-/	.	.	.	.	.	.	.	.	.	.	.	.	.
4EE-/)	.	.	.	.	.	.	.	.	.	.	.	.	.	.
!	!	!	!	!	!LO:DY:a:rj	!	!	!LO:DY:a:rj	!	!	!LO:DY:a:rj	!	!	!
.	8b- 8g 8e-/	.	8e-/	-ścić	p	8g/	-ścić	p	8b-\	-ścić	p	.	.	.
!!LO:LB:g=original
=21	=21	=21	=21	=21	=21	=21	=21	=21	=21	=21	=21	=21	=21	=21
(4AA-/	8a- 8c/	.	2A-/	racz!	.	2a-/	racz!	.	2a-/	racz!	.	1r	.	.
.	4cc 4e-/	.	.	.	.	.	.	.	.	.	.	.	.	.
4C/	.	.	.	.	.	.	.	.	.	.	.	.	.	.
.	4cc 4e-/	.	.	.	.	.	.	.	.	.	.	.	.	.
4E-\	.	.	2r	.	.	2r	.	.	2r	.	.	.	.	.
.	(8ccL 8e-/	.	.	.	.	.	.	.	.	.	.	.	.	.
4A-\	8bn 8dn/	.	.	.	.	.	.	.	.	.	.	.	.	.
.	8b-XJ 8d-X/	.	.	.	.	.	.	.	.	.	.	.	.	.
=22	=22	=22	=22	=22	=22	=22	=22	=22	=22	=22	=22	=22	=22	=22
!	!	!	!	!	!	!	!	!	!	!	!	!LO:TX:a:B:t=AST. Solo (ad libitum).	!	!
4c\	8a-L 8c/)	.	1r	.	.	2r	.	.	2r	.	.	1r	.	.
.	8ee- 8cc/	>	.	.	.	.	.	.	.	.	.	.	.	.
4e-\)	8ddn 8bn/	.	.	.	.	.	.	.	.	.	.	.	.	.
.	8dd-XJ 8b-X/	]	.	.	.	.	.	.	.	.	.	.	.	.
!	!	!	!	!	!	!	!	!	!	!	!LO:DY:a	!	!	!
(4g\	(8cc\L	.	.	.	.	4.cc\	Od	f	4.ee-\	Od	f	.	.	.
.	8ee-\	.	.	.	.	.	.	.	.	.	.	.	.	.
4a-\)	8aa-\	.	.	.	.	.	.	.	.	.	.	.	.	.
.	8ccc\J)	.	.	.	.	8cc\	wie-	.	8ee-\	wie-	.	.	.	.
=23	=23	=23	=23	=23	=23	=23	=23	=23	=23	=23	=23	=23	=23	=23
(4AA-/	8eee-\	f	4r	.	.	[2cc\	-czo-	.	[2ee-\	-czo-	.	1r	.	.
.	4ee- 4cc^\	.	.	.	.	.	.	.	.	.	.	.	.	.
!	!	!	!	!	!LO:DY:a	!	!	!	!	!	!	!	!	!
4C/	.	.	4a-/	Z wie-	f	.	.	.	.	.	.	.	.	.
.	4ee- 4cc\	.	.	.	.	.	.	.	.	.	.	.	.	.
4E-\	.	.	2a-/	-czo-	.	4.cc\]	.	.	4.ee-\]	.	.	.	.	.
.	4ee- 4cc\	.	.	.	.	.	.	.	.	.	.	.	.	.
4A-\	.	.	.	.	.	.	.	.	.	.	.	.	.	.
.	[8ee- [8cc\L	.	.	.	.	8cc\	-ra	.	8ee-\	-ra	.	.	.	.
=24	=24	=24	=24	=24	=24	=24	=24	=24	=24	=24	=24	=24	=24	=24
4c\	8ee-] 8cc\J]	.	2a-/	-ra	.	(2cc\	do	.	(2ee-\	do	.	1r	.	.
.	4ee- 4cc\	.	.	.	.	.	.	.	.	.	.	.	.	.
4e-\)	.	.	.	.	.	.	.	.	.	.	.	.	.	.
.	4ee- 4cc\	.	.	.	.	.	.	.	.	.	.	.	.	.
(4g\	.	.	4.g/	do	.	4.b-\)	.	.	4.dd-\)	.	.	.	.	.
.	(4dd- 4b-\	.	.	.	.	.	.	.	.	.	.	.	.	.
4a-\)	.	.	.	.	.	.	.	.	.	.	.	.	.	.
.	8cc 8a-\)	.	8a-/	po-	.	8a-/	po-	.	8cc\	po-	.	.	.	.
=25	=25	=25	=25	=25	=25	=25	=25	=25	=25	=25	=25	=25	=25	=25
4g\	8dd- 8b-\	.	4e-/	-ran-	.	2b-\	-ran-	.	2dd-\	-ran-	.	4r	.	.
.	4dd- 4b-^\	.	.	.	.	.	.	.	.	.	.	.	.	.
(4GG/	.	.	4e-/	-ka	.	.	.	.	.	.	.	4r	.	.
.	4dd- 4b- 4e-/	.	.	.	.	.	.	.	.	.	.	.	.	.
4BB-/	.	.	2r	.	.	4g/	-ka	.	4b-\	-ka	.	4e-/	Bo-	.
.	4dd- 4b- 4e-/	.	.	.	.	.	.	.	.	.	.	.	.	.
4E-\	.	.	.	.	.	4r	.	.	4r	.	.	4g/	-że!	.
!	!LO:TX:t=P:problem=brak ligatury [8b-	!	!	!	!	!	!	!	!	!	!	!	!	!
.	[8dd- [8b- [8e-/	.	.	.	.	.	.	.	.	.	.	.	.	.
!!LO:LB:g=original
=26	=26	=26	=26	=26	=26	=26	=26	=26	=26	=26	=26	=26	=26	=26
4G\	8dd-] 8b-] 8e-/]	.	2r	.	.	2r	.	.	2r	.	.	4f/	Ty	.
.	4dd- 4b- 4e-/	.	.	.	.	.	.	.	.	.	.	.	.	.
4B-\)	.	.	.	.	.	.	.	.	.	.	.	4e-/	nas	.
.	4dd- 4b-\	.	.	.	.	.	.	.	.	.	.	.	.	.
(4dn\	.	.	4r	.	.	4r	.	.	4r	.	.	[4dn/	pom-	.
.	4b- 4g/	.	.	.	.	.	.	.	.	.	.	.	.	.
!	!	!	!	!	!	!	!	!LO:DY:a	!	!	!LO:DY:a	!	!	!
4e-\)	.	.	8.e-/	pró-	.	8.g/	pró-	<	8.b-\	pró-	<	8.d/]	.	.
.	8b- 8g/	.	.	.	.	.	.	.	.	.	.	.	.	.
.	.	.	16e-/	-żno	.	16g/	-żno	[[	16b-\	-żno	[[	16e-/	-ścić	.
=27	=27	=27	=27	=27	=27	=27	=27	=27	=27	=27	=27	=27	=27	=27
(4EE-/	8ff 8dd- 8g\	sf	2.e-/	wzy-	.	2.dd-^\	wzy-	.	2.ff^\	wzy-	.	[2e-/	racz!	.
.	4ff 4dd- 4g\	.	.	.	.	.	.	.	.	.	.	.	.	.
4GG/	.	.	.	.	.	.	.	.	.	.	.	.	.	.
.	4ff 4dd- 4g\	.	.	.	.	.	.	.	.	.	.	.	.	.
4BB-/	.	.	.	.	.	.	.	.	.	.	.	4e-/]	.	.
.	4ff 4dd- 4g\	.	.	.	.	.	.	.	.	.	.	.	.	.
4E-\	.	.	4e-/	-wam	.	4dd-\	-wam	.	4ff\	-wam	.	4ryy	.	.
.	[8ff [8dd- [8g\	.	.	.	.	.	.	.	.	.	.	.	.	.
=28	=28	=28	=28	=28	=28	=28	=28	=28	=28	=28	=28	=28	=28	=28
4G\	8ff] 8dd-] 8g\]	.	2.e-/	cię	.	(2dd-\	cię	.	(2ff\	cię	.	2r	.	.
.	4ff 4dd-\	.	.	.	.	.	.	.	.	.	.	.	.	.
4B-\	.	.	.	.	.	.	.	.	.	.	.	.	.	.
.	4ff 4dd-\	.	.	.	.	.	.	.	.	.	.	.	.	.
4e-\	.	.	.	.	.	4cc\)	.	.	4ee-\)	.	.	4e-/	Od	.
.	4ee- 4cc\	.	.	.	.	.	.	.	.	.	.	.	.	.
4E-\)	.	.	4e-/	ja	.	4bn\	ja	.	4ddn\	ja	.	4e-/	wie-	.
.	8ddn 8bn\	.	.	.	.	.	.	.	.	.	.	.	.	.
=29	=29	=29	=29	=29	=29	=29	=29	=29	=29	=29	=29	=29	=29	=29
(4AA-/	8ddn 8bn\	sf	2a-/	bran-	.	2bn\	bran-	.	2ddn\	bran-	.	(2A-/	-czo-	.
.	4dd 4b\	.	.	.	.	.	.	.	.	.	.	.	.	.
4A-\	.	.	.	.	.	.	.	.	.	.	.	.	.	.
.	4ee- 4cc\	.	.	.	.	.	.	.	.	.	.	.	.	.
!	!	!	!	!	!	!	!	!	!	!	!	!	!	!LO:DY:a
4E-\	.	.	4a-/	-ka	.	4cc\	-ka	.	4ee-\	-ka	.	4c/)	.	<
.	4ee- 4cc\	.	.	.	.	.	.	.	.	.	.	.	.	.
4C\	.	.	4r	.	.	4r	.	.	4r	.	.	4e-/	-ra	[
.	[8ee- [8cc\	.	.	.	.	.	.	.	.	.	.	.	.	.
=30	=30	=30	=30	=30	=30	=30	=30	=30	=30	=30	=30	=30	=30	=30
4AA-/	8ee-] 8cc\]	.	1r	.	.	1r	.	.	1r	.	.	4a-\	do	.
.	4ee- 4cc\	.	.	.	.	.	.	.	.	.	.	.	.	.
4A-\	.	.	.	.	.	.	.	.	.	.	.	4cc\	po-	.
.	4ee- 4cc\	<	.	.	.	.	.	.	.	.	.	.	.	.
4B-\	.	.	.	.	.	.	.	.	.	.	.	4b-\	-ran-	.
.	4ee- 4cc\	.	.	.	.	.	.	.	.	.	.	.	.	.
4c\)	.	.	.	.	.	.	.	.	.	.	.	4a-\	-ka	.
.	8ee- 8cc\	[	.	.	.	.	.	.	.	.	.	.	.	.
!!LO:PB:g=original
=31	=31	=31	=31	=31	=31	=31	=31	=31	=31	=31	=31	=31	=31	=31
!	!	!LO:DY:t=%s marcato.	!	!	!	!	!	!	!	!	!	!	!	!
4G 4GG\	8een 8cc 8b-\	f	4g/	bła-	.	2cc^\	bła-	.	2een^\	bła-	.	4g/	pró-	.
.	4ee 4cc 4b-\	.	.	.	.	.	.	.	.	.	.	.	.	.
4B- 4BB-\	.	.	4b-/	.	.	.	.	.	.	.	.	4b-/	-żno	.
.	4ee 4cc 4b-\	.	.	.	.	.	.	.	.	.	.	.	.	.
4A- 4AA-\	.	.	4.a-/	-gam	.	4.cc\	-gam	.	4.ee\	-gam	.	4a-/	wzy-	.
.	4ee 4cc 4b-\	.	.	.	.	.	.	.	.	.	.	.	.	.
4G 4GG\	.	.	.	.	.	.	.	.	.	.	.	4g/	-wam	.
.	8ee 8cc 8b-\	.	8g/	cię	.	8b-\	cię	.	8ee\	cię	.	.	.	.
=32	=32	=32	=32	=32	=32	=32	=32	=32	=32	=32	=32	=32	=32	=32
4F 4FF\	8ff 8cc 8a-\	.	2f/	ja	.	2a-/	ja	.	(4ff\	ja	.	4f/	pró-	.
.	4ff 4cc 4a-\	<	.	.	.	.	.	.	.	.	.	.	.	.
4A- 4AA-\	.	.	.	.	.	.	.	.	4cc^\)	.	.	4A-/	-żno	.
.	4cc 4a-/	.	.	.	.	.	.	.	.	.	.	.	.	.
!	!	!	!	!	!	!	!	!LO:DY:a	!	!	!LO:DY:a	!	!	!
4B- 4BB-\	.	.	4B-/	bran-	.	(4g/	bran-	>	(4b-/	bran-	>	4B-/	bła-	.
.	4b- 4g/	[	.	.	.	.	.	.	.	.	.	.	.	.
4Bn 4BBn\	.	.	4Bn/	.	.	4f/)	.	]	4a-/)	.	]	4Bn/	-gam	.
.	8a- 8f/	.	.	.	.	.	.	.	.	.	.	.	.	.
=33	=33	=33	=33	=33	=33	=33	=33	=33	=33	=33	=33	=33	=33	=33
4c 4C\	4cc 4en/	.	2c/	-ka	.	2en/	-ka	.	2g/	-ka	.	2c/	cię	.
4r	4r	.	.	.	.	.	.	.	.	.	.	.	.	.
!	!	!	!	!	!	!	!	!	!	!	!LO:DY:a	!	!	!
(16C/LL	(16c/LL	f	4.c/	wzy-	.	4.cc\	wzy-	f	4.cc\	wzy-	f	4.c/	wzy-	f
16BBn/	16Bn/	.	.	.	.	.	.	.	.	.	.	.	.	.
16C/	16c/	.	.	.	.	.	.	.	.	.	.	.	.	.
16D-/JJ	16d-/JJ	.	.	.	.	.	.	.	.	.	.	.	.	.
4C/)	4c/)	.	.	.	.	.	.	.	.	.	.	.	.	.
.	.	.	8c/	-wam	.	8cc\	-wam	.	8cc\	-wam	.	8c/	-wam	.
=34	=34	=34	=34	=34	=34	=34	=34	=34	=34	=34	=34	=34	=34	=34
(16C/LL	(16c/LL	.	4.c/	cię	.	4.cc\	cię	.	4.cc\	cię	.	4.c/	cię	.
16BBn/	16Bn/	.	.	.	.	.	.	.	.	.	.	.	.	.
16C/	16c/	.	.	.	.	.	.	.	.	.	.	.	.	.
16D-/JJ	16d-/JJ	.	.	.	.	.	.	.	.	.	.	.	.	.
4C/)	4c/)	.	.	.	.	.	.	.	.	.	.	.	.	.
!	!	!	!	!	!	!	!	!	!	!	!LO:DY:a	!	!	!
.	.	.	8c/	ja	.	8cc\	ja	.	8cc\	ja	<	8c/	ja	.
(16C/LL	(16c/LL	.	4.c/	bran-	.	4.cc\	bran-	.	4.cc\	bran-	.	4.c/	bran-	.
16BB/	16B/	.	.	.	.	.	.	.	.	.	.	.	.	.
16C/	16c/	.	.	.	.	.	.	.	.	.	.	.	.	.
16D-/JJ	16d-/JJ	.	.	.	.	.	.	.	.	.	.	.	.	.
4C/)	4c/)	.	.	.	.	.	.	.	.	.	.	.	.	.
.	.	.	8c/	-ka	.	8cc\	-ka	.	8cc\	-ka	[[	8c/	-ka	.
!!LO:LB:g=original
=35	=35	=35	=35	=35	=35	=35	=35	=35	=35	=35	=35	=35	=35	=35
!	!LO:N:vis=4	!	!	!	!	!	!	!	!	!	!	!	!	!
4G 4GG\	8een 8cc 8b-\	f	(2c/	bła-	.	(<2b-\	bła-	.	(2een\	bła-	.	1r	.	.
.	4ee 4cc 4b-\	.	.	.	.	.	.	.	.	.	.	.	.	.
4B-X 4BB-X\	.	.	.	.	.	.	.	.	.	.	.	.	.	.
.	4ee 4cc 4b-\	.	.	.	.	.	.	.	.	.	.	.	.	.
4A- 4AA-\	.	.	4.c/)	.	.	4.g/)	.	.	4.ee\)	.	.	.	.	.
.	4ee 4cc 4b-\	.	.	.	.	.	.	.	.	.	.	.	.	.
4G 4GG/	.	.	.	.	.	.	.	.	.	.	.	.	.	.
.	8ee 8cc 8b-\	.	8c/	-gam	.	8g/	-gam	.	8ee\	-gam	.	.	.	.
=36	=36	=36	=36	=36	=36	=36	=36	=36	=36	=36	=36	=36	=36	=36
!	!	!LO:DY:a	!	!	!	!	!	!	!	!	!	!	!	!
4F 4FF\	8ff 8cc 8a-\	<	2f/	cię	.	2a-/	cię	.	2aa-\	cię	.	1r	.	.
.	4ff 4cc 4a-\	.	.	.	.	.	.	.	.	.	.	.	.	.
4A- 4AA-\	.	.	.	.	.	.	.	.	.	.	.	.	.	.
.	4cc 4a-\	.	.	.	.	.	.	.	.	.	.	.	.	.
4B- 4BB-\	.	.	2r	.	.	2r	.	.	2r	.	.	.	.	.
.	4b- 4g/	.	.	.	.	.	.	.	.	.	.	.	.	.
4Bn 4BBn\	.	[	.	.	.	.	.	.	.	.	.	.	.	.
.	8a- 8f/	.	.	.	.	.	.	.	.	.	.	.	.	.
=37	=37	=37	=37	=37	=37	=37	=37	=37	=37	=37	=37	=37	=37	=37
4c 4C\	4cc 4en/	.	4r	.	.	4r	.	.	4r	.	.	1r	.	.
4r	4r	.	8r	.	.	8r	.	.	8r	.	.	.	.	.
!	!	!	!	!	!LO:DY:a:rj	!	!	!LO:DY:a:rj	!	!	!LO:DY:a:rj	!	!	!
.	.	.	8c/	ja	pp	8cc\	ja	pp	8cc\	ja	pp	.	.	.
(16C/LL	(16c/LL	p	4c/	bran-	.	4.cc\	bran-	.	4.cc\	bran-	.	.	.	.
16BBn/	16Bn/	.	.	.	.	.	.	.	.	.	.	.	.	.
16C/	16c/	.	.	.	.	.	.	.	.	.	.	.	.	.
16D-/JJ	16d-/JJ	.	.	.	.	.	.	.	.	.	.	.	.	.
4C/)	4c/)	.	4c/	-ka	.	.	.	.	.	.	.	.	.	.
.	.	.	.	.	.	8cc\	-ka	.	8cc\	-ka	.	.	.	.
=38	=38	=38	=38	=38	=38	=38	=38	=38	=38	=38	=38	=38	=38	=38
(16C/LL	(16c/LL	.	2.c/	bła-	.	2.cc\	bła-	.	2.cc\	bła-	.	2r	.	.
16BBn/	16Bn/	.	.	.	.	.	.	.	.	.	.	.	.	.
16C/	16c/	.	.	.	.	.	.	.	.	.	.	.	.	.
16D-/JJ	16d-/JJ	.	.	.	.	.	.	.	.	.	.	.	.	.
4C/)	4c/)	.	.	.	.	.	.	.	.	.	.	.	.	.
!	!	!	!	!	!	!	!	!	!	!	!	!LO:TX:a:B:t=Solo    DĄBRÓWKA	!	!
(16C/LL	(16c/LL	.	.	.	.	.	.	.	.	.	.	4r	.	.
16BB/	16B/	.	.	.	.	.	.	.	.	.	.	.	.	.
16C/	16c/	.	.	.	.	.	.	.	.	.	.	.	.	.
16D-/JJ	16d-/JJ	.	.	.	.	.	.	.	.	.	.	.	.	.
4C/)	4c/)	.	4c/	-gam	.	4cc\	-gam	.	4cc\	-gam	.	4cc\	Ty	.
!!LO:LB:g=original
=39	=39	=39	=39	=39	=39	=39	=39	=39	=39	=39	=39	=39	=39	=39
*	*^	*	*	*	*	*	*	*	*	*	*	*	*	*
!	!	!	!	!	!	!LO:DY:a:rj	!	!	!LO:DY:a:rj	!	!	!LO:DY:a:rj	!	!	!LO:DY:a:rj
4F 4FF/	2dd-/	16dd-\LL	fp	2d-X^>/	cię!	p	2f^>/	cię!	p	2a-^>/	cię!	p	2dd-^\	z kra-	p
.	.	16f\	.	.	.	.	.	.	.	.	.	.	.	.	.
.	.	16a-\	.	.	.	.	.	.	.	.	.	.	.	.	.
.	.	16f\JJ	.	.	.	.	.	.	.	.	.	.	.	.	.
4r	.	16a-\LL	.	.	.	.	.	.	.	.	.	.	.	.	.
.	.	16f\	.	.	.	.	.	.	.	.	.	.	.	.	.
.	.	16a-\	.	.	.	.	.	.	.	.	.	.	.	.	.
.	.	16f\JJ	.	.	.	.	.	.	.	.	.	.	.	.	.
*	*	*tremolo	*	*	*	*	*	*	*	*	*	*	*	*	*
4.d- 4.A- 4.F\	16a-\LL	2ryy	.	2r	.	.	2r	.	.	2r	.	.	4.dd-\	-ju	.
.	16f\	.	.	.	.	.	.	.	.	.	.	.	.	.	.
.	16a-\	.	.	.	.	.	.	.	.	.	.	.	.	.	.
.	16f\	.	.	.	.	.	.	.	.	.	.	.	.	.	.
.	16a-\	.	.	.	.	.	.	.	.	.	.	.	.	.	.
.	16f\	.	.	.	.	.	.	.	.	.	.	.	.	.	.
8d- 8A- 8F\	16a-\	.	.	.	.	.	.	.	.	.	.	.	8dd-\	mi	.
.	16f\JJ	.	.	.	.	.	.	.	.	.	.	.	.	.	.
*	*Xtremolo	*	*	*	*	*	*	*	*	*	*	*	*	*	*
=40	=40	=40	=40	=40	=40	=40	=40	=40	=40	=40	=40	=40	=40	=40	=40
*	*	*tremolo	*	*	*	*	*	*	*	*	*	*	*	*	*
4d- 4A- 4F\	2dd-/	16a-\LL	.	1r	.	.	1r	.	.	1r	.	.	(4dd-\	szlesz	.
.	.	16f\	.	.	.	.	.	.	.	.	.	.	.	.	.
.	.	16a-\	.	.	.	.	.	.	.	.	.	.	.	.	.
.	.	16f\	.	.	.	.	.	.	.	.	.	.	.	.	.
16ddd->/LL	.	16a-\	.	.	.	.	.	.	.	.	.	.	4ff\)	.	.
!	!	!LO:TX:a:t=L. R.	!	!	!	!	!	!	!	!	!	!	!	!	!
16eee->/	.	16f\	.	.	.	.	.	.	.	.	.	.	.	.	.
16fff>/	.	16a-\	.	.	.	.	.	.	.	.	.	.	.	.	.
16ggg>/JJ	.	16f\JJ	.	.	.	.	.	.	.	.	.	.	.	.	.
4aaa->/	2ryy	16a-\LL	.	.	.	.	.	.	.	.	.	.	4aa-\	pta-	.
.	.	16f\	.	.	.	.	.	.	.	.	.	.	.	.	.
.	.	16a-\	.	.	.	.	.	.	.	.	.	.	.	.	.
.	.	16f\	.	.	.	.	.	.	.	.	.	.	.	.	.
4r	.	16a-\	.	.	.	.	.	.	.	.	.	.	4dd-\	-sząt	.
.	.	16f\	.	.	.	.	.	.	.	.	.	.	.	.	.
.	.	16a-\	.	.	.	.	.	.	.	.	.	.	.	.	.
.	.	16f\JJ	.	.	.	.	.	.	.	.	.	.	.	.	.
*	*	*Xtremolo	*	*	*	*	*	*	*	*	*	*	*	*	*
=41	=41	=41	=41	=41	=41	=41	=41	=41	=41	=41	=41	=41	=41	=41	=41
4E- 4EE-/	16rb	2ryy	.	2r	.	.	2r	.	.	2r	.	.	(4.dd-\	pta-	.
.	16e-/LL	.	.	.	.	.	.	.	.	.	.	.	.	.	.
.	16g/	.	.	.	.	.	.	.	.	.	.	.	.	.	.
.	16e-/JJ	.	.	.	.	.	.	.	.	.	.	.	.	.	.
4r	16g/LL	.	.	.	.	.	.	.	.	.	.	.	.	.	.
.	16e-/	.	.	.	.	.	.	.	.	.	.	.	.	.	.
.	16g/	.	.	.	.	.	.	.	.	.	.	.	8cc\)	-sząt	.
.	16e-/JJ	.	.	.	.	.	.	.	.	.	.	.	.	.	.
!	!	!	!	!	!	!LO:DY:a:rj	!	!	!LO:DY:a:rj	!	!	!LO:DY:a:rj	!	!	!
4c 4G 4E-\	2cc/	16cc\LL	.	4e-/	-próż-	pp	4g/	-próż-	pp	4cc\	-próż-	pp	4cc\	śpiew;	.
.	.	16e-\	.	.	.	.	.	.	.	.	.	.	.	.	.
.	.	16g\	.	.	.	.	.	.	.	.	.	.	.	.	.
.	.	16e-\JJ	.	.	.	.	.	.	.	.	.	.	.	.	.
4r	.	16g\LL	.	4e-/	-no	.	4f/	-no	.	4cc\	-no	.	4r	.	.
.	.	16e-\	.	.	.	.	.	.	.	.	.	.	.	.	.
.	.	16g\	.	.	.	.	.	.	.	.	.	.	.	.	.
.	.	16e-\JJ	.	.	.	.	.	.	.	.	.	.	.	.	.
=42	=42	=42	=42	=42	=42	=42	=42	=42	=42	=42	=42	=42	=42	=42	=42
!LO:S:s=1:note:problem=note-level slur	!	!	!	!	!	!	!	!	!	!	!	!	!	!	!
!LO:S:s=2:note:problem=note-level slur	!	!	!	!	!	!	!	!	!	!	!	!	!	!	!
!LO:S:s=3:note:problem=note-level slur	!	!	!	!	!	!	!	!	!	!	!	!	!	!	!
!LO:S:s=4:note:problem=note-level slur	!	!	!	!	!	!	!	!	!	!	!	!	!	!	!
(2Bn (2A- (2F (2D-\	2bn/	16b\LL	.	2f/	bła-	.	2a-/	bła-	.	2bn/	bła-	.	2r	.	.
.	.	16f\	.	.	.	.	.	.	.	.	.	.	.	.	.
.	.	16a-\	.	.	.	.	.	.	.	.	.	.	.	.	.
.	.	16f\JJ	.	.	.	.	.	.	.	.	.	.	.	.	.
.	.	16a-\LL	.	.	.	.	.	.	.	.	.	.	.	.	.
.	.	16f\	.	.	.	.	.	.	.	.	.	.	.	.	.
.	.	16a-\	.	.	.	.	.	.	.	.	.	.	.	.	.
.	.	16f\JJ	.	.	.	.	.	.	.	.	.	.	.	.	.
!LO:S:s=1:note:problem=note-level slur	!	!	!	!	!	!	!	!	!	!	!	!	!	!	!
!LO:S:s=2:note:problem=note-level slur	!	!	!	!	!	!	!	!	!	!	!	!	!	!	!
!LO:S:s=3:note:problem=note-level slur	!	!	!	!	!	!	!	!	!	!	!	!	!	!	!
!LO:S:s=4:note:problem=note-level slur	!	!	!	!	!	!	!	!	!	!	!	!	!	!	!
4c) 4G) 4E-) 4C\)	2ryy	16cc\LL	.	4e-/	-gam	.	4g/	-gam	.	4cc\	-gam	.	4.cc\	Przyj-	.
.	.	16e-\	.	.	.	.	.	.	.	.	.	.	.	.	.
.	.	16g\	.	.	.	.	.	.	.	.	.	.	.	.	.
.	.	16e-\JJ	.	.	.	.	.	.	.	.	.	.	.	.	.
4r	.	16g\LL	.	4r	.	.	4r	.	.	4r	.	.	.	.	.
.	.	16e-\	.	.	.	.	.	.	.	.	.	.	.	.	.
.	.	16g\	.	.	.	.	.	.	.	.	.	.	8cc\	-mij	.
.	.	16e-\JJ	.	.	.	.	.	.	.	.	.	.	.	.	.
!!LO:PB:g=original
=43	=43	=43	=43	=43	=43	=43	=43	=43	=43	=43	=43	=43	=43	=43	=43
4DD-X/	2b-X/	16b-\LL	.	1r	.	.	1r	.	.	1r	.	.	([2b-^\	wich	.
.	.	16d-\	.	.	.	.	.	.	.	.	.	.	.	.	.
.	.	16f\	.	.	.	.	.	.	.	.	.	.	.	.	.
.	.	16d-\JJ	.	.	.	.	.	.	.	.	.	.	.	.	.
4r	.	16f\LL	.	.	.	.	.	.	.	.	.	.	.	.	.
.	.	16d-\	.	.	.	.	.	.	.	.	.	.	.	.	.
.	.	16f\	.	.	.	.	.	.	.	.	.	.	.	.	.
.	.	16d-\JJ	.	.	.	.	.	.	.	.	.	.	.	.	.
4.B- 4.F 4.D-X\	2ryy	16f\LL	.	.	.	.	.	.	.	.	.	.	8b-\L]	.	.
.	.	16d-\	.	.	.	.	.	.	.	.	.	.	.	.	.
.	.	16f\	.	.	.	.	.	.	.	.	.	.	8cc\J)	.	.
.	.	16d-\JJ	.	.	.	.	.	.	.	.	.	.	.	.	.
.	.	16f\LL	.	.	.	.	.	.	.	.	.	.	8dd-\L	.	.
.	.	16d-\	.	.	.	.	.	.	.	.	.	.	.	.	.
8B- 8F 8D-\	.	16f\	.	.	.	.	.	.	.	.	.	.	8ee-\J	kwi-	.
.	.	16d-\JJ	.	.	.	.	.	.	.	.	.	.	.	.	.
=44	=44	=44	=44	=44	=44	=44	=44	=44	=44	=44	=44	=44	=44	=44	=44
*	*	*tremolo	*	*	*	*	*	*	*	*	*	*	*	*	*
!	!	!LO:TX:t=P:problem=t. 44-45 – półnuty w tremolo	!	!	!	!	!	!	!	!	!	!	!	!	!
4B- 4F 4D-\	2b-/	16f\LL	.	1r	.	.	1r	.	.	1r	.	.	((2ff\	-lą-	.
.	.	16d-\	.	.	.	.	.	.	.	.	.	.	.	.	.
.	.	16f\	.	.	.	.	.	.	.	.	.	.	.	.	.
.	.	16d-\	.	.	.	.	.	.	.	.	.	.	.	.	.
(16bb->/LL	.	(16f\	.	.	.	.	.	.	.	.	.	.	.	.	.
!	!	!LO:TX:a:t=L R	!	!	!	!	!	!	!	!	!	!	!	!	!
16ccc>/	.	16d-\	.	.	.	.	.	.	.	.	.	.	.	.	.
16ddd->/	.	16f\	.	.	.	.	.	.	.	.	.	.	.	.	.
16eee->/JJ))	.	16d-\JJ	.	.	.	.	.	.	.	.	.	.	.	.	.
4fff>/	2ryy	16f\LL	.	.	.	.	.	.	.	.	.	.	8ee-\L)	.	.
.	.	16d-\	.	.	.	.	.	.	.	.	.	.	.	.	.
.	.	16f\	.	.	.	.	.	.	.	.	.	.	8dd-\	.	.
.	.	16d-\	.	.	.	.	.	.	.	.	.	.	.	.	.
4r	.	16f\	.	.	.	.	.	.	.	.	.	.	8cc\J)	.	.
.	.	16d-\	.	.	.	.	.	.	.	.	.	.	.	.	.
.	.	16f\	.	.	.	.	.	.	.	.	.	.	8b-\	-cym	.
.	.	16d-\JJ	.	.	.	.	.	.	.	.	.	.	.	.	.
*	*	*Xtremolo	*	*	*	*	*	*	*	*	*	*	*	*	*
*	*v	*v	*	*	*	*	*	*	*	*	*	*	*	*	*
=45	=45	=45	=45	=45	=45	=45	=45	=45	=45	=45	=45	=45	=45	=45
4CC/	16r	.	2r	.	.	2r	.	.	2r	.	.	(8b-/L	gło-	.
.	16e-\LL	.	.	.	.	.	.	.	.	.	.	.	.	.
.	16a-\	.	.	.	.	.	.	.	.	.	.	8g/	.	.
.	16e-\JJ	.	.	.	.	.	.	.	.	.	.	.	.	.
4r	16a-\LL	.	.	.	.	.	.	.	.	.	.	8a-/	.	.
.	16e-\	.	.	.	.	.	.	.	.	.	.	.	.	.
.	16a-\	.	.	.	.	.	.	.	.	.	.	8ff/J)	.	.
.	16e-\JJ	.	.	.	.	.	.	.	.	.	.	.	.	.
*	*tremolo	*	*	*	*	*	*	*	*	*	*	*	*	*
4.c 4.A- 4.E- 4.C\	16a-\LL	.	4r	.	.	4r	.	.	4r	.	.	4ee-\	-sie	.
.	16e-\	.	.	.	.	.	.	.	.	.	.	.	.	.
.	16a-\	.	.	.	.	.	.	.	.	.	.	.	.	.
.	16e-\	.	.	.	.	.	.	.	.	.	.	.	.	.
!	!	!	!	!	!LO:DY:a	!	!	!LO:DY:a	!	!	!LO:DY:a	!	!	!
.	16a-\	.	4c/	Wich	<[	4e-/	Wich	<[	4a-/	Wich	<[	4r	.	.
.	16e-\	.	.	.	.	.	.	.	.	.	.	.	.	.
8c 8A- 8E- 8C\	16a-\	.	.	.	.	.	.	.	.	.	.	.	.	.
.	16e-\JJ	.	.	.	.	.	.	.	.	.	.	.	.	.
*	*Xtremolo	*	*	*	*	*	*	*	*	*	*	*	*	*
=46	=46	=46	=46	=46	=46	=46	=46	=46	=46	=46	=46	=46	=46	=46
*	*^	*	*	*	*	*	*	*	*	*	*	*	*	*
[2c [2A- [2E- [2C\	2ee-/	16ee-\LL	.	(2c/	rzew-	.	2.e-/	rzew-	.	(2ee-\	rzew-	.	2r	.	.
.	.	16e-\	.	.	.	.	.	.	.	.	.	.	.	.	.
.	.	16a-\	.	.	.	.	.	.	.	.	.	.	.	.	.
.	.	16e-\JJ	.	.	.	.	.	.	.	.	.	.	.	.	.
.	.	16a-\LL	.	.	.	.	.	.	.	.	.	.	.	.	.
.	.	16e-\	.	.	.	.	.	.	.	.	.	.	.	.	.
.	.	16a-\	.	.	.	.	.	.	.	.	.	.	.	.	.
.	.	16e-\JJ	.	.	.	.	.	.	.	.	.	.	.	.	.
4c] 4A-] 4E-] 4C\]	4cc/	16cc\LL	.	4e-/)	.	.	.	.	.	4cc\)	.	.	4r	.	.
.	.	16e-\	.	.	.	.	.	.	.	.	.	.	.	.	.
.	.	16a-\	.	.	.	.	.	.	.	.	.	.	.	.	.
.	.	16e-\JJ	.	.	.	.	.	.	.	.	.	.	.	.	.
4r	4a-/	16a-\LL	.	4c/	-nym	.	4e-/	-nym	.	4a-/	-nym	.	4a-\	te	f
.	.	16e-\	.	.	.	.	.	.	.	.	.	.	.	.	.
.	.	16a-\	.	.	.	.	.	.	.	.	.	.	.	.	.
.	.	16e-\JJ	.	.	.	.	.	.	.	.	.	.	.	.	.
*	*v	*v	*	*	*	*	*	*	*	*	*	*	*	*	*
!!LO:LB:g=original
=47	=47	=47	=47	=47	=47	=47	=47	=47	=47	=47	=47	=47	=47	=47
!	!LO:TX:a:t=Fl	!	!	!	!LO:DY:a:rj	!	!	!LO:DY:a:rj	!	!	!LO:DY:a:rj	!	!	!LO:DY:a:rj
8BB-\L	2g/	p	2d-/	gło-	p	2e-/	gło-	p	2g/	gło-	p	1ee-	łzy	f
8e- 8d- 8B-\	.	.	.	.	.	.	.	.	.	.	.	.	.	.
8e- 8d- 8B-\	.	.	.	.	.	.	.	.	.	.	.	.	.	.
8e-J 8d- 8B-\	.	.	.	.	.	.	.	.	.	.	.	.	.	.
4e- 4d- 4B-\	8g/L	.	4d-/	-sie	.	4e-/	-sie	.	4g/	-sie	.	.	.	.
.	8a-'/	.	.	.	.	.	.	.	.	.	.	.	.	.
4r	8b-'/	.	4r	.	.	4r	.	.	4r	.	.	.	.	.
.	8cc'/J	.	.	.	.	.	.	.	.	.	.	.	.	.
=48	=48	=48	=48	=48	=48	=48	=48	=48	=48	=48	=48	=48	=48	=48
4e- 4d- 4B-\	8dd-'\L	.	4r	.	.	4r	.	.	4r	.	.	2ee-\	te	.
.	8ee-'\	.	.	.	.	.	.	.	.	.	.	.	.	.
4r	8ff'\	.	4d-/	przyjm	.	4e-/	przyjm	.	4g/	przyjm	.	.	.	.
.	8gg'\J	.	.	.	.	.	.	.	.	.	.	.	.	.
4e- 4d- 4B-\	8aa-'\L	.	4d-/	mo-	.	4e-/	mo-	.	4g/	mo-	.	8ee-\L	mo-	.
.	8bb-'\	.	.	.	.	.	.	.	.	.	.	(8dd-\	.	.
4r	8ccc'\	.	4d-/	-je	.	4e-/	-je	.	4g/	-je	.	8cc\J)	.	.
.	8ddd-'\J	.	.	.	.	.	.	.	.	.	.	8b-\	-je	.
=49	=49	=49	=49	=49	=49	=49	=49	=49	=49	=49	=49	=49	=49	=49
8AA-\L	4eee-\	.	(2c/	łzy	.	[2e-/	łzy	.	[2a-/	łzy	.	2a-/	łzy	.
8e- 8c 8A-\	.	.	.	.	.	.	.	.	.	.	.	.	.	.
8e- 8c 8A-\	[>4a-^>/	.	.	.	.	.	.	.	.	.	.	.	.	.
8e-J 8c 8A-\	.	.	.	.	.	.	.	.	.	.	.	.	.	.
4e- 4c 4A-\	8a-\L]	.	4.e-/)	.	.	4.e-/]	.	.	4.a-/]	.	.	2r	.	.
.	8b-'\	.	.	.	.	.	.	.	.	.	.	.	.	.
4r	8cc'\	.	.	.	.	.	.	.	.	.	.	.	.	.
.	8dd-'\J	.	8e-/	wy-	.	8e-/	wy-	.	8a-/	wy-	.	.	.	.
=50	=50	=50	=50	=50	=50	=50	=50	=50	=50	=50	=50	=50	=50	=50
4e- 4c 4A-\	8ee-'\L	.	2.c/	-pi-	.	2.e-/	-pi-	.	(4a-\	-pi-	.	2r	.	.
.	8ff'\	.	.	.	.	.	.	.	.	.	.	.	.	.
4r	8gg'\	.	.	.	.	.	.	.	4ee-\	.	.	.	.	.
.	8aa-'\J	.	.	.	.	.	.	.	.	.	.	.	.	.
4e- 4c 4A-\	8bb-'\L	.	.	.	.	.	.	.	4cc\)	.	.	4r	.	.
.	8ccc'\	.	.	.	.	.	.	.	.	.	.	.	.	.
4r	8ddd-'\	.	4c/	-te	.	4e-/	-te	.	4a-/	-te	.	4a-/	łzy	.
.	8eee-'\J	.	.	.	.	.	.	.	.	.	.	.	.	.
!!LO:LB:g=original
=51	=51	=51	=51	=51	=51	=51	=51	=51	=51	=51	=51	=51	=51	=51
8GG\L	4eeen\	.	[2c^>/	w ro-	.	[2en^>/	w ro-	.	(2g^>/	w ro-	.	[2g^>/	mo-	.
8en 8c 8B- 8G\	.	.	.	.	.	.	.	.	.	.	.	.	.	.
8e 8c 8B- 8G\	[4g^>/	.	.	.	.	.	.	.	.	.	.	.	.	.
8eJ 8c 8B- 8G\	.	.	.	.	.	.	.	.	.	.	.	.	.	.
!	!	!	!	!	!	!	!	!	!LO:SIC:v:s=4en/)	!	!	!	!	!
4e 4c 4B- 4G\	8g/L]	.	4c/]	.	.	4e/]	.	.	4e-/)	.	.	8g/]	.	.
.	8a-'/	.	.	.	.	.	.	.	.	.	.	(8a-/L	-je	.
!	!	!	!	!	!	!	!	!	!LO:SIC:v:s=4en/	!	!	!	!	!
4r	8b-'/	.	4c/	-sie,	.	4e/	-sie,	.	4e-/	-sie,	.	8b-/J)	.	.
.	8cc'/J	.	.	.	.	.	.	.	.	.	.	8cc\	wy-	.
=52	=52	=52	=52	=52	=52	=52	=52	=52	=52	=52	=52	=52	=52	=52
4en 4c 4B- 4G\	8dd-\L	.	4.c/	i	.	4.en/	i	.	4.g/	i	.	(8dd-\L	-pi-	.
.	8een\	.	.	.	.	.	.	.	.	.	.	8cc\	.	.
4r	8gg\	.	.	.	.	.	.	.	.	.	.	8gg\	.	.
.	8aa-\J	.	8c/	twój	.	8e/	twój	.	8g/	twój	.	8ff\J	.	.
4e 4c 4B- 4G\	8bb-\L	.	4c/	świę-	.	4e/	świę-	.	4g/	świę-	.	8een\L	.	.
.	8ccc\	.	.	.	.	.	.	.	.	.	.	8dd-\J)	.	.
4r	8dddn\	.	4c/	-ty	.	4e/	-ty	.	4g/	-ty	.	(8cc\L	-te	.
.	8eeen\J	.	.	.	.	.	.	.	.	.	.	8b-\J)	.	.
=53	=53	=53	=53	=53	=53	=53	=53	=53	=53	=53	=53	=53	=53	=53
8FF\L	4fff\	.	2f 2F/	twój	.	2f/	twój	.	2f/	twój	.	2b-\	w ro-	.
8c 8A-\	.	.	.	.	.	.	.	.	.	.	.	.	.	.
8c 8A-\	[>4f/	.	.	.	.	.	.	.	.	.	.	.	.	.
8cJ 8A-\	.	.	.	.	.	.	.	.	.	.	.	.	.	.
!	!	!	!	!	!LO:DY:a:rj	!	!	!LO:DY:a:rj	!	!	!LO:DY:a:rj	!	!	!LO:DY:a:rj
4c 4A-\	(8f\L]	.	4.f/	świę-	f	4.f/	świę-	f	4.f/	świę-	f	4.a-/	-sie,	f
.	8a-\	.	.	.	.	.	.	.	.	.	.	.	.	.
4r	8dd-\	.	.	.	.	.	.	.	.	.	.	.	.	.
.	8cc\J	.	8f/	-ty	.	8f/	-ty	.	8f/	-ty	.	8a-/	I	.
=54	=54	=54	=54	=54	=54	=54	=54	=54	=54	=54	=54	=54	=54	=54
4f 4c 4A- 4F\	8gg\L	.	2.f/	zła-	.	2.f/	zła-	.	2.ff\	zła-	.	2f/	twój	.
.	8ff\	.	.	.	.	.	.	.	.	.	.	.	.	.
4r	8bb-\	.	.	.	.	.	.	.	.	.	.	.	.	.
.	8aa-\J	.	.	.	.	.	.	.	.	.	.	.	.	.
4f 4c 4A- 4F\	8ddd-\L	.	.	.	.	.	.	.	.	.	.	(8f/L	zła-	.
.	8ccc\	.	.	.	.	.	.	.	.	.	.	8a-/J)	.	.
4r	8eeen\	.	4f/	-godź	.	4f/	-godź	.	4f/	-godź	.	(8cc\L	-godź	.
.	8fff\J)	.	.	.	.	.	.	.	.	.	.	8ff\J)	.	.
=55	=55	=55	=55	=55	=55	=55	=55	=55	=55	=55	=55	=55	=55	=55
*	*8va	*	*	*	*	*	*	*	*	*	*	*	*	*
!	!	!	!	!	!LO:DY:a:rj	!	!	!LO:DY:a:rj	!	!	!	!	!	!
8BB-\L	[2ggg-X\	.	2.B-/	gniew!	f	2.d-/	gniew!	f	2.g-X/	gniew!	.	1gg-X^	gniew!	.
8g-X 8d-X 8B-\	.	.	.	.	.	.	.	.	.	.	.	.	.	.
8g- 8d- 8B-\	.	.	.	.	.	.	.	.	.	.	.	.	.	.
8g-J 8d- 8B-\	.	.	.	.	.	.	.	.	.	.	.	.	.	.
4g- 4d- 4B-\	8ggg-\L]	.	.	.	.	.	.	.	.	.	.	.	.	.
.	(8fff\	.	.	.	.	.	.	.	.	.	.	.	.	.
4r	8ggg-\	.	4r	.	.	4r	.	.	4r	.	.	.	.	.
.	8ccc\J	.	.	.	.	.	.	.	.	.	.	.	.	.
!!LO:PB:g=original
=56	=56	=56	=56	=56	=56	=56	=56	=56	=56	=56	=56	=56	=56	=56
!	!	!	!	!	!LO:DY:a	!	!	!LO:DY:a	!	!	!LO:DY:a:rj	!	!	!LO:DY:a
4g-X 4d- 4B-\	8ddd-\L	.	4B-/	I	p	4d-/	I	p	4g-X:/	I	p	2g-X/	I	p
.	8aan\	.	.	.	.	.	.	.	.	.	.	.	.	.
4r	8bb-\	.	4B-/	twój	.	4d-/	twój	.	4g-/	twój	.	.	.	.
.	8ff\J	.	.	.	.	.	.	.	.	.	.	.	.	.
*	*X8va	*	*	*	*	*	*	*	*	*	*	*	*	*
4g- 4d- 4B-\	8gg-X\L	.	4B-/	świę-	.	4d-/	świę-	.	4g-/	świę-	.	4r	.	.
.	8cc\	.	.	.	.	.	.	.	.	.	.	.	.	.
4r	8dd-\	.	4B-/	-ty	.	4d-/	-ty	.	4g-/	-ty	.	4g-/	twój	.
.	8b-\J)	.	.	.	.	.	.	.	.	.	.	.	.	.
=57	=57	=57	=57	=57	=57	=57	=57	=57	=57	=57	=57	=57	=57	=57
*	*8va	*	*	*	*	*	*	*	*	*	*	*	*	*
8BBn\L	[2fff\	.	2.Bn/	gniew	.	2.dn/	gniew	.	2.f/	gniew	.	2.f/	świę-	.
8a- 8f 8Bn\	.	.	.	.	.	.	.	.	.	.	.	.	.	.
8a- 8f 8B\	.	.	.	.	.	.	.	.	.	.	.	.	.	.
8a-J 8f 8B\	.	.	.	.	.	.	.	.	.	.	.	.	.	.
4a- 4f 4B\	8fff\L]	.	.	.	.	.	.	.	.	.	.	.	.	.
.	8eeen\	.	.	.	.	.	.	.	.	.	.	.	.	.
4r	8fff\	.	4r	.	.	4r	.	.	4r	.	.	4f/	-ty	.
.	8ccc#X\J	.	.	.	.	.	.	.	.	.	.	.	.	.
=58	=58	=58	=58	=58	=58	=58	=58	=58	=58	=58	=58	=58	=58	=58
!	!	!	!	!	!	!	!	!	!	!	!	!	!	!LO:DY:a
4a- 4f 4Bn\	8ddd-\L	.	4Bn/	świę-	.	4dn/	świę-	.	4f/	świę-	.	4f/	świę-	<
.	8aa#X\	.	.	.	.	.	.	.	.	.	.	.	.	.
4r	8bbn\	.	4B/	-ty	.	4d/	-ty	.	4f/	-ty	.	4ff\	-ty	.
.	8gg\J	.	.	.	.	.	.	.	.	.	.	.	.	.
*	*X8va	*	*	*	*	*	*	*	*	*	*	*	*	*
!	!	!	!	!	!	!	!	!	!	!	!	!	!	!LO:DY:a
4a- 4f 4B\	8aa-X\L	.	4B/	zła-	.	4d/	zła-	.	4a-/	zła-	.	4ggn\	zła-	[ >
.	8een\	.	.	.	.	.	.	.	.	.	.	.	.	.
4r	8ff\	.	4B/	-godź	.	4d/	-godź	.	4a-/	-godź	.	4ff\	-godź	]]
.	8dd-\J	.	.	.	.	.	.	.	.	.	.	.	.	.
=59	=59	=59	=59	=59	=59	=59	=59	=59	=59	=59	=59	=59	=59	=59
!	!	!LO:DY:t=%s agitato	!	!	!	!	!	!	!	!	!	!	!	!
4C\	8cc\	f	2c/	gniew!	.	2en/	gniew!	.	2g/	gniew!	.	2een\	gniew!	.
.	4cc 4en/	.	.	.	.	.	.	.	.	.	.	.	.	.
4c\	.	.	.	.	.	.	.	.	.	.	.	.	.	.
.	4cc 4e/	.	.	.	.	.	.	.	.	.	.	.	.	.
4Bn\	.	.	2r	.	.	2r	.	.	2r	.	.	2r	.	.
.	4ddn 4f/	.	.	.	.	.	.	.	.	.	.	.	.	.
4B-X\	.	.	.	.	.	.	.	.	.	.	.	.	.	.
.	[8een [8g\	<	.	.	.	.	.	.	.	.	.	.	.	.
=60	=60	=60	=60	=60	=60	=60	=60	=60	=60	=60	=60	=60	=60	=60
4A-\	8ee] 8g\]	[	1r	.	.	1r	.	.	1r	.	.	1r	.	.
.	4ff 4f\	>	.	.	.	.	.	.	.	.	.	.	.	.
4En\	.	.	.	.	.	.	.	.	.	.	.	.	.	.
.	4gg 4g\	.	.	.	.	.	.	.	.	.	.	.	.	.
4F\	.	.	.	.	.	.	.	.	.	.	.	.	.	.
.	4aa- 4a-\	.	.	.	.	.	.	.	.	.	.	.	.	.
4Dn\	.	.	.	.	.	.	.	.	.	.	.	.	.	.
.	8ff 8bn 8a-\	]	.	.	.	.	.	.	.	.	.	.	.	.
=61	=61	=61	=61	=61	=61	=61	=61	=61	=61	=61	=61	=61	=61	=61
4C/	8een 8g\	.	1r	.	.	1r	.	.	1r	.	.	1r	.	.
.	4cc 4en/	<	.	.	.	.	.	.	.	.	.	.	.	.
4c\	.	.	.	.	.	.	.	.	.	.	.	.	.	.
.	4cc 4e/	.	.	.	.	.	.	.	.	.	.	.	.	.
!LO:SIC:v:s=4Bn\	!	!	!	!	!	!	!	!	!	!	!	!	!	!
4B-X\	.	.	.	.	.	.	.	.	.	.	.	.	.	.
.	4ddn 4f/	.	.	.	.	.	.	.	.	.	.	.	.	.
!LO:SIC:v:s=4B-\	!	!	!	!	!	!	!	!	!	!	!	!	!	!
4Bn\	.	.	.	.	.	.	.	.	.	.	.	.	.	.
.	[8ee [8g/	.	.	.	.	.	.	.	.	.	.	.	.	.
!!LO:LB:g=original
=62	=62	=62	=62	=62	=62	=62	=62	=62	=62	=62	=62	=62	=62	=62
4A-\	8eenX] 8g\]	[	1r	.	.	1r	.	.	1r	.	.	1r	.	.
.	4ff 4a- 4f\	.	.	.	.	.	.	.	.	.	.	.	.	.
4En\	.	.	.	.	.	.	.	.	.	.	.	.	.	.
.	4gg 4b- 4g\	>	.	.	.	.	.	.	.	.	.	.	.	.
4F\	.	.	.	.	.	.	.	.	.	.	.	.	.	.
.	4aa- 4cc 4a-\	.	.	.	.	.	.	.	.	.	.	.	.	.
4Dn\	.	.	.	.	.	.	.	.	.	.	.	.	.	.
.	8ff 8bn 8a-\	]	.	.	.	.	.	.	.	.	.	.	.	.
=63	=63	=63	=63	=63	=63	=63	=63	=63	=63	=63	=63	=63	=63	=63
4C\	8een 8cc 8g\	.	2r	.	.	2r	.	.	2r	.	.	1r	.	.
.	4cc 4en/	.	.	.	.	.	.	.	.	.	.	.	.	.
4c\	.	.	.	.	.	.	.	.	.	.	.	.	.	.
.	4cc 4e/	.	.	.	.	.	.	.	.	.	.	.	.	.
!	!	!	!	!	!LO:DY:a	!	!	!LO:DY:a	!	!	!LO:DY:a	!	!	!
4c\	.	.	4en/	Sły-	p	4g/	Sły-	p	4cc\	Sły-	p	.	.	.
.	4cc 4e/	.	.	.	.	.	.	.	.	.	.	.	.	.
4c\	.	.	4e/	-szę	.	4g/	-szę	.	4cc\	-szę	.	.	.	.
.	[8cc [8e/	.	.	.	.	.	.	.	.	.	.	.	.	.
=64	=64	=64	=64	=64	=64	=64	=64	=64	=64	=64	=64	=64	=64	=64
4c-X\	8cc] 8enX/]	.	2f^>/	w ich	.	2a-^>/	w ich	.	2dd-^\	w ich	.	1r	.	.
.	4dd-X 4f/	.	.	.	.	.	.	.	.	.	.	.	.	.
4C-X/	.	.	.	.	.	.	.	.	.	.	.	.	.	.
.	[<8dd- [8f/	.	.	.	.	.	.	.	.	.	.	.	.	.
4BB-/	8dd-] 8f/]	.	2B-/	kwi-	.	2g-X/	kwi-	.	2dd-\	kwi-	.	.	.	.
.	4dd- 4g-X/	.	.	.	.	.	.	.	.	.	.	.	.	.
4B-\	.	.	.	.	.	.	.	.	.	.	.	.	.	.
.	[8dd- [8g-/	.	.	.	.	.	.	.	.	.	.	.	.	.
=65	=65	=65	=65	=65	=65	=65	=65	=65	=65	=65	=65	=65	=65	=65
4B--\	8dd-] 8g-/]	.	4.An/	-lą-	.	4.gn 4.en/	-lą-	.	4.cc\	-lą-	.	1r	.	.
.	4dd- 4gn/	.	.	.	.	.	.	.	.	.	.	.	.	.
4BB--/	.	.	.	.	.	.	.	.	.	.	.	.	.	.
.	[<8dd- [8g/	.	8A/	-cym	.	8g 8e/	-cym	.	8dd-\	-cym	.	.	.	.
4AA-X/	8dd-] 8g/]	.	2A-X/	gło-	.	2f/	gło-	.	2dd-\	gło-	.	.	.	.
.	4dd- 4a- 4f/	.	.	.	.	.	.	.	.	.	.	.	.	.
4A-X\	.	.	.	.	.	.	.	.	.	.	.	.	.	.
.	[8dd- 8a- [8f/	.	.	.	.	.	.	.	.	.	.	.	.	.
=66	=66	=66	=66	=66	=66	=66	=66	=66	=66	=66	=66	=66	=66	=66
4Gn\	8dd-] 8a- 8f/]	.	4G/	-sie	.	4en/	-sie	.	4cc\	-sie	.	2r	.	.
.	4cc 4b- 4en/	.	.	.	.	.	.	.	.	.	.	.	.	.
4GGn/	.	.	4c/	kwi-	.	4b-\	kwi-	.	4cc\	kwi-	.	.	.	.
.	4cc 4b- 4e/	.	.	.	.	.	.	.	.	.	.	.	.	.
4En 4EEn/	.	.	4en/	-lą-	.	4b-\	-lą-	.	4cc\	-lą-	.	4cc\	Od	.
.	4dd- 4b- 4g\	.	.	.	.	.	.	.	.	.	.	.	.	.
4C 4CC/	.	.	4c/	-cym	.	4b-\	-cym	.	4cc\	-cym	.	4cc\	wie-	.
.	8een 8b- 8g\	.	.	.	.	.	.	.	.	.	.	.	.	.
=67	=67	=67	=67	=67	=67	=67	=67	=67	=67	=67	=67	=67	=67	=67
!	!	!	!	!	!	!	!	!	!	!	!	!	!	!LO:DY:a
4F 4FF/	8ff 8a-\	<	2f/	gło-	.	2a-/	gło-	.	2cc\	gło-	.	4cc\	-czo-	<
.	4cc 4a-\	[	.	.	.	.	.	.	.	.	.	.	.	.
4F 4FF/	.	.	.	.	.	.	.	.	.	.	.	4aa-\	-ra	[
.	4aa- 4cc 4a-^<\	.	.	.	.	.	.	.	.	.	.	.	.	.
4G 4GG/	.	.	2f/	-sie	.	4f/	-sie	.	4a-\	-sie	.	4gg\	do	.
.	4gg 4cc 4a-^<\	.	.	.	.	.	.	.	.	.	.	.	.	.
4A- 4AA-\	.	.	.	.	.	4r	.	.	4r	.	.	4ff\	po-	.
.	[8ff 8cc [8a-^<\	.	.	.	.	.	.	.	.	.	.	.	.	.
!!LO:LB:g=original
=68	=68	=68	=68	=68	=68	=68	=68	=68	=68	=68	=68	=68	=68	=68
4B- 4BB-\	8ff] 8a-\]	.	2r	.	.	2r	.	.	2r	.	.	(4een\	-ran-	.
.	4een 4g^>\	.	.	.	.	.	.	.	.	.	.	.	.	.
4B- 4BB-\	.	.	.	.	.	.	.	.	.	.	.	4ff\)	.	.
.	4ff 4dd-X 4g^>\	.	.	.	.	.	.	.	.	.	.	.	.	.
4B- 4BB-\	.	.	4B-/	mo-	.	4d-/	mo-	.	4f/	mo-	.	2g/	-ka	.
.	4g 4f/	p	.	.	.	.	.	.	.	.	.	.	.	.
4B- 4BB-\	.	.	4B-/	-je	.	4d-/	-je	.	4f/	-je	.	.	.	.
.	8g 8f/	.	.	.	.	.	.	.	.	.	.	.	.	.
=69	=69	=69	=69	=69	=69	=69	=69	=69	=69	=69	=69	=69	=69	=69
4B- 4BB-\	8g 8f/	.	4B-/	łzy	.	4d-/	łzy	.	2.f/	łzy	.	4g/	pró-	.
.	4g 4f/	.	.	.	.	.	.	.	.	.	.	.	.	.
4BB- 4BBB-/	.	.	4B-/	wy-	.	4d-/	wy-	.	.	.	.	4ff\	-żno	.
.	4ff 4g 4f\	>	.	.	.	.	.	.	.	.	.	.	.	.
4C 4CC/	.	.	4B-/	-pi-	.	4g/	-pi-	.	.	.	.	4ee-\	wzy-	.
.	4ee- 4g 4f\	.	.	.	.	.	.	.	.	.	.	.	.	.
4D- 4DD-/	.	]]	4B-/	-te	.	4f/	-te	.	4g/	wy-	.	4dd-\	-wam	.
.	8dd- 8g 8f/	.	.	.	.	.	.	.	.	.	.	.	.	.
=70	=70	=70	=70	=70	=70	=70	=70	=70	=70	=70	=70	=70	=70	=70
4C 4CC/	8cc 8a- 8f/	.	1c	w ro-	.	2f/	wy-	.	(2a-/	-pi-	.	4cc\	cię	.
.	4cc 4a- 4f/	.	.	.	.	.	.	.	.	.	.	.	.	.
4c 4C\	.	.	.	.	.	.	.	.	.	.	.	4cc\	ja	.
.	8cc 8a- 8f/	.	.	.	.	.	.	.	.	.	.	.	.	.
4c 4C\	8cc 8g 8en/	.	.	.	.	4en/	-pi-	.	4b-\)	.	.	(4ddn\	bran-	.
.	4cc 4g 4e/	.	.	.	.	.	.	.	.	.	.	.	.	.
4c 4C\	.	.	.	.	.	(8cc\L	-te	.	4g/	-te	.	4een\)	.	.
.	8cc 8g 8e/	.	.	.	.	8b-\J)	.	.	.	.	.	.	.	.
=71	=71	=71	=71	=71	=71	=71	=71	=71	=71	=71	=71	=71	=71	=71
4F 4FF\	8cc 8a- 8f/	sfp	2f/	-sie	.	4a-\	w ro-	.	4f/	w ro-	.	2ff\	-ka	.
.	4cc 4a-/	<	.	.	.	.	.	.	.	.	.	.	.	.
4F 4FF\	.	.	.	.	.	4a-\	-sie	.	4f/	-sie	.	.	.	.
.	4aa- 4cc 4a-\	.	.	.	.	.	.	.	.	.	.	.	.	.
4G 4GG\	.	.	2r	.	.	2r	.	.	2r	.	.	2r	.	.
.	4gg 4b-\	.	.	.	.	.	.	.	.	.	.	.	.	.
4A- 4AA-\	.	.	.	.	.	.	.	.	.	.	.	.	.	.
.	[8ff [8a-\	[	.	.	.	.	.	.	.	.	.	.	.	.
=72	=72	=72	=72	=72	=72	=72	=72	=72	=72	=72	=72	=72	=72	=72
4B- 4BB-\	8ff] 8a-\]	.	2r	.	.	2r	.	.	2r	.	.	4een\	pró-	.
.	4een 4g\	.	.	.	.	.	.	.	.	.	.	.	.	.
4B- 4BB-\	.	.	.	.	.	.	.	.	.	.	.	4ff\	-żno	.
.	4ff 4dd-X 4g\	.	.	.	.	.	.	.	.	.	.	.	.	.
4B- 4BB-\	.	.	4d-/	mo-	.	4f/	mo-	.	4g/	mo-	.	4g/	bła-	.
.	4g 4f/	.	.	.	.	.	.	.	.	.	.	.	.	.
4B- 4BB-\	.	.	4d-/	-je	.	4f/	-je	.	4g/	-je	.	4g/	-gam	.
.	8g 8f/	.	.	.	.	.	.	.	.	.	.	.	.	.
=73	=73	=73	=73	=73	=73	=73	=73	=73	=73	=73	=73	=73	=73	=73
!	!	!	!	!	!	!	!	!	!	!	!	!	!	!LO:DY:a
4B- 4BB-\	8g 8f/	.	2B-/	łzy	.	2f/	łzy	.	2g/	łzy	.	4g/	cię	<
.	4g 4f/	.	.	.	.	.	.	.	.	.	.	.	.	.
4B- 4BB-\	.	.	.	.	.	.	.	.	.	.	.	4ff\	ja	.
.	4g 4f/	.	.	.	.	.	.	.	.	.	.	.	.	.
4Bn 4BBn\	.	.	2Bn/	wy-	.	2f/	wy-	.	2g/	wy-	.	4gg\	bran-	[
.	4g 4f/	.	.	.	.	.	.	.	.	.	.	.	.	.
4B 4BB\	.	.	.	.	.	.	.	.	.	.	.	4ff\	-ka;	.
.	8g 8f/	.	.	.	.	.	.	.	.	.	.	.	.	.
!!LO:PB:g=original
=74	=74	=74	=74	=74	=74	=74	=74	=74	=74	=74	=74	=74	=74	=74
4c 4C\	8cc 8g 8en/	<	(4c/	-pi-	.	[2en/	-pi-	.	[2g/	-pi-	.	4een\	ja	.
.	4cc 4g 4e/	[	.	.	.	.	.	.	.	.	.	.	.	.
4d- 4D-\	.	.	4d-/	.	.	.	.	.	.	.	.	4ff\	mam	.
.	4cc 4g 4e/	.	.	.	.	.	.	.	.	.	.	.	.	.
4c 4C\	.	.	4c/)	.	.	4e/]	.	.	4g/]	.	.	4cc\	bied-	.
.	4cc 4g 4e/	>	.	.	.	.	.	.	.	.	.	.	.	.
4B- 4BB-\	.	.	4B-X/	-te	.	4e/	-te	.	4g/	-te	.	4cc\	-na	.
.	8cc 8g 8e/	]	.	.	.	.	.	.	.	.	.	.	.	.
=75	=75	=75	=75	=75	=75	=75	=75	=75	=75	=75	=75	=75	=75	=75
4A- 4AA-\	8cc 8a- 8f/	.	4A-/	w ro-	.	4f/	w ro-	.	4f/	w ro-	.	4cc\	ja	.
.	4cc 4a- 4f/	.	.	.	.	.	.	.	.	.	.	.	.	.
!	!	!	!	!	!	!	!	!	!	!	!	!LO:TX:a:i:t=espres.	!	!
4F 4FF\	.	.	4f/	-sie	.	4f/	-sie	.	4f/	-sie	.	4aa-\	mam	.
.	4aa- 4cc 4a-^<\	.	.	.	.	.	.	.	.	.	.	.	.	.
4G 4GG\	.	.	2r	.	.	2r	.	.	2r	.	.	4gg\	bied-	.
.	4gg 4cc 4a-\	.	.	.	.	.	.	.	.	.	.	.	.	.
4A- 4AA-\	.	.	.	.	.	.	.	.	.	.	.	4ff\	-na	.
.	8ff 8cc 8a-\	.	.	.	.	.	.	.	.	.	.	.	.	.
=76	=76	=76	=76	=76	=76	=76	=76	=76	=76	=76	=76	=76	=76	=76
4An 4AAn\	8r	.	1r	.	.	1r	.	.	1r	.	.	4ff\	tyl-	.
.	4ff 4f\	<	.	.	.	.	.	.	.	.	.	.	.	.
4B- 4BB-\	.	.	.	.	.	.	.	.	.	.	.	4gg-X\	-ko	.
.	4gg-X 4dd- 4g-X\	[	.	.	.	.	.	.	.	.	.	.	.	.
4B- 4BB-\	.	.	.	.	.	.	.	.	.	.	.	(2gg-\	płacz	.
.	4gg- 4dd- 4g-\	.	.	.	.	.	.	.	.	.	.	.	.	.
4B- 4BB-\	.	.	.	.	.	.	.	.	.	.	.	.	.	.
.	8gg- 8dd- 8g-\	.	.	.	.	.	.	.	.	.	.	.	.	.
=77	=77	=77	=77	=77	=77	=77	=77	=77	=77	=77	=77	=77	=77	=77
4B- 4BB-\	8gg-X 8dd- 8g-X\	.	1r	.	.	4d-X/	łzy	.	4g-X/	łzy	.	8gg-X\L	.	.
.	4gg- 4dd- 4g-\	f >	.	.	.	.	.	.	.	.	.	8dd-\J)	.	.
4G-X 4GG-X\	.	.	.	.	.	4d-/	wy-	.	4g-/	wy-	.	(8cc\L	mam	.
.	4bb- 4dd- 4b-\	.	.	.	.	.	.	.	.	.	.	8dd-\J)	.	.
4A- 4AA-\	.	.	.	.	.	4d-/	-pi-	.	4g-/	-pi-	.	(8ee-\L	tyl-	.
.	4aa- 4dd- 4b-\	.	.	.	.	.	.	.	.	.	.	8dd-\J)	.	.
4B- 4BB-\	.	]	.	.	.	4d-/	-te	.	4g-/	-te	.	(8b-\L	-ko	.
.	8gg- 8dd- 8b-\	.	.	.	.	.	.	.	.	.	.	8dd-\J)	.	.
=78	=78	=78	=78	=78	=78	=78	=78	=78	=78	=78	=78	=78	=78	=78
4B- 4BB-\	8gg-X 8dd- 8g-X\	.	1r	.	.	4d-X/	w ro-	.	4g-X/	w ro-	.	2g-X/	płacz	.
.	4gg- 4dd- 4g-\	.	.	.	.	.	.	.	.	.	.	.	.	.
4B- 4BB-\	.	.	.	.	.	4d-/	-sie	.	4g-/	-sie	.	.	.	.
.	8gg- 8dd- 8g-\	.	.	.	.	.	.	.	.	.	.	.	.	.
4Bn 4BBn\	8ff 8dd- 8a-^<\	.	.	.	.	2r	.	.	2r	.	.	2r	.	.
.	4ff 4dd- 4a-\	.	.	.	.	.	.	.	.	.	.	.	.	.
4B 4BB\	.	.	.	.	.	.	.	.	.	.	.	.	.	.
.	8ff 8dd- 8a-\	.	.	.	.	.	.	.	.	.	.	.	.	.
=79	=79	=79	=79	=79	=79	=79	=79	=79	=79	=79	=79	=79	=79	=79
!	!	!	!	!	!	!	!	!	!	!	!	!	!	!LO:DY:a
4c 4C\	8cc 8a- 8f/	.	2c/	niech	.	2a-/	niech	.	4cc\	niech	.	4f/	ja	<
.	4cc 4a- 4f/	.	.	.	.	.	.	.	.	.	.	.	.	.
4C 4CC/	.	.	.	.	.	.	.	.	4ff\	zła-	.	4ff\	mam	[
.	4ff 4a- 4f/	.	.	.	.	.	.	.	.	.	.	.	.	.
!	!	!	!	!	!	!	!	!	!	!	!	!	!	!LO:DY:a
4F 4FF/	.	.	2f/	zła-	.	2a-/	zła-	.	4ee-\	-god-	.	4ee-\	bied-	>
.	4ee- 4a- 4f/	.	.	.	.	.	.	.	.	.	.	.	.	.
4A- 4AA-/	.	.	.	.	.	.	.	.	4dd-\	-zą	.	4dd-\	-na	]]
.	8dd- 8a- 8f/	.	.	.	.	.	.	.	.	.	.	.	.	.
!!LO:LB:g=original
=80	=80	=80	=80	=80	=80	=80	=80	=80	=80	=80	=80	=80	=80	=80
!	!	!	!	!	!	!	!	!	!LO:N:vis=4	!	!	!	!	!LO:DY:a
4c 4C\	8cc 8g 8f/	.	4f/	-god-	.	4g/	-god-	.	4.cc\	bos-	.	(2cc\	tyl-	p
.	4cc 4g 4f/	.	.	.	.	.	.	.	.	.	.	.	.	.
4c 4C\	.	.	4e-/	-zą	.	4g/	-zą	.	.	.	.	.	.	.
!	!LO:TX:b:i:t=rall	!	!LO:TX:a:i:t=rit.	!	!	!LO:TX:a:i:t=rit.	!	!	!LO:TX:a:i:t=rit.	!	!	!LO:TX:a:i:t=riten.	!	!
.	8cc 8g 8en/	.	.	.	.	.	.	.	8b-\	-ki	.	.	.	.
*	*	*	*Xbrackettup	*	*	*Xbrackettup	*	*	*Xbrackettup	*	*	*	*	*
!	!	!	!	!	!	!	!	!	!LO:TUP:a:problem=klamra łukowa	!	!	!	!	!
4c 4C\	8cc 8g 8e/	.	(6c/	bos-	.	(6en/	bos-	.	6b-\	bos-	.	4.en/)	.	.
.	4cc 4g 4e/	.	.	.	.	.	.	.	.	.	.	.	.	.
.	.	.	6c/)	.	.	6e/)	.	.	6a-\	.	.	.	.	.
4c 4C\	.	.	.	.	.	.	.	.	.	.	.	.	.	.
.	.	.	6c/	-ki	.	6g/	-ki	.	6g\	-ki	.	.	.	.
.	8cc 8g 8e/	.	.	.	.	.	.	.	.	.	.	8e/	-ko	.
=81	=81	=81	=81	=81	=81	=81	=81	=81	=81	=81	=81	=81	=81	=81
4FF/	8ff 8a- 8f\	pp	2F/	gniew!	.	2f/	gniew!	.	2f/	gniew!	.	2f/	płacz!	.
.	4cc 4a-\	.	.	.	.	.	.	.	.	.	.	.	.	.
4AA-/	.	.	.	.	.	.	.	.	.	.	.	.	.	.
!	!LO:TX:b:t=a tempo	!	!	!	!	!	!	!	!	!	!	!	!	!
.	4cc 4a-\	.	.	.	.	.	.	.	.	.	.	.	.	.
4C/	.	.	2r	.	.	2r	.	.	2r	.	.	2r	.	.
.	4cc 4a-\	.	.	.	.	.	.	.	.	.	.	.	.	.
4F\	.	.	.	.	.	.	.	.	.	.	.	.	.	.
.	8cc 8a-\	.	.	.	.	.	.	.	.	.	.	.	.	.
=82	=82	=82	=82	=82	=82	=82	=82	=82	=82	=82	=82	=82	=82	=82
4A-\	8cc 8a-\	.	2r	.	.	2r	.	.	2r	.	.	1r	.	.
.	4cc 4a-\	.	.	.	.	.	.	.	.	.	.	.	.	.
4c\	.	.	.	.	.	.	.	.	.	.	.	.	.	.
.	4cc 4a-\	.	.	.	.	.	.	.	.	.	.	.	.	.
!	!	!	!LO:SIC:v:s=4en/	!	!LO:DY:a:rj	!	!	!LO:DY:a:rj	!	!	!LO:DY:a:rj	!	!	!
4en\	.	.	4e-/	niech	pp	4g/	niech	pp	4cc\	niech	pp	.	.	.
.	4cc 4a-\	.	.	.	.	.	.	.	.	.	.	.	.	.
4f\	.	.	4f/	zła-	.	4g/	zła-	.	4cc\	zła-	.	.	.	.
.	8cc 8a-\	.	.	.	.	.	.	.	.	.	.	.	.	.
=83	=83	=83	=83	=83	=83	=83	=83	=83	=83	=83	=83	=83	=83	=83
*ped	*	*	*	*	*	*	*	*	*	*	*	*	*	*
4FF/	8cc 8an\	pp	[1f	-go-	.	(1a-	-go-	.	1cc	-go-	.	2r	.	.
.	4cc 4a\	.	.	.	.	.	.	.	.	.	.	.	.	.
4AAn/	.	.	.	.	.	.	.	.	.	.	.	.	.	.
.	4cc 4a\	.	.	.	.	.	.	.	.	.	.	.	.	.
4C/	.	.	.	.	.	.	.	.	.	.	.	4.ff\	Bo-	.
.	4cc 4a\	.	.	.	.	.	.	.	.	.	.	.	.	.
4F\	.	.	.	.	.	.	.	.	.	.	.	.	.	.
.	8cc 8a\L	.	.	.	.	.	.	.	.	.	.	8ff\	-że	.
=84	=84	=84	=84	=84	=84	=84	=84	=84	=84	=84	=84	=84	=84	=84
4An\	8cc 8an\J	.	4f/]	.	.	4an/)	.	.	4cc\	-dzą	.	4ff\	ty	.
.	4cc 4a\	.	.	.	.	.	.	.	.	.	.	.	.	.
4c\	.	.	4f/	-dzą	.	4a/	-dzą	.	4r	.	.	(8een\L	nas	.
.	4cc 4a\	.	.	.	.	.	.	.	.	.	.	8ddn\J)	.	.
(4en\	.	.	4en/	bos-	.	4a/	bos-	.	4r	.	.	(8cc\L	pom-	.
.	4cc 4a\	.	.	.	.	.	.	.	.	.	.	8dd\J)	.	.
*Xped	*	*	*	*	*	*	*	*	*	*	*	*	*	*
4f\)	.	.	4f/	-ki	.	4a/	-ki	.	4cc\	twój	.	(8cc/L	-ścić	.
.	8cc 8a\	.	.	.	.	.	.	.	.	.	.	8an/J)	.	.
=85	=85	=85	=85	=85	=85	=85	=85	=85	=85	=85	=85	=85	=85	=85
*ped	*	*	*	*	*	*	*	*	*	*	*	*	*	*
4FF/	8ddn 8b-\	<	1f^	gniew!	.	1b-^	gniew!	.	1ddn^	gniew!	.	2f/	racz	.
.	4dd 4b-\	.	.	.	.	.	.	.	.	.	.	.	.	.
4BB-/	.	.	.	.	.	.	.	.	.	.	.	.	.	.
.	4dd 4b-\	.	.	.	.	.	.	.	.	.	.	.	.	.
4Dn/	.	.	.	.	.	.	.	.	.	.	.	4.f/	Bo-	.
.	4dd 4b-\	.	.	.	.	.	.	.	.	.	.	.	.	.
4F\	.	.	.	.	.	.	.	.	.	.	.	.	.	.
!	!LO:TX:t=P:problem=brak poczatków łuków	!	!	!	!	!	!	!	!	!	!	!	!	!
.	[8dd [8b-\	[	.	.	.	.	.	.	.	.	.	8f/	-że	.
!!LO:LB:g=original
=86	=86	=86	=86	=86	=86	=86	=86	=86	=86	=86	=86	=86	=86	=86
4B-\	8ddn] 8b-\]	<	2r	.	.	2r	.	.	2r	.	.	4f/	ty	.
.	4dd 4b-\	.	.	.	.	.	.	.	.	.	.	.	.	.
4dn\	.	.	.	.	.	.	.	.	.	.	.	(8b-\L	nas	.
.	4dd 4b-\	.	.	.	.	.	.	.	.	.	.	8ddn\J)	.	.
!	!	!	!	!	!LO:DY:a:rj	!	!	!LO:DY:a:rj	!	!	!LO:DY:a:rj	!	!	!
(4en\	.	.	4en/	niech	pp	4b-\	niech	pp	4dd-\	niech	pp	(8ggn\L	pom-	.
.	4dd 4b-\	[	.	.	.	.	.	.	.	.	.	8ff\J)	.	.
4f\)	.	.	4f/	zła-	.	4b-\	zła-	.	4dd-\	zła-	.	(8een\L	-ścić	.
.	8dd 8b-\	.	.	.	.	.	.	.	.	.	.	8dd\J)	.	.
=87	=87	=87	=87	=87	=87	=87	=87	=87	=87	=87	=87	=87	=87	=87
*^	*	*	*	*	*	*	*	*	*	*	*	*	*	*
4FF/	1FF	8een 8b- 8g\	<	[1f	-go-	.	[<1b-	-go-	.	[<1dd-X	-go-	.	(4een\	racz!	.
.	.	4ee 4b- 4g\	.	.	.	.	.	.	.	.	.	.	.	.	.
4BB-/	.	.	.	.	.	.	.	.	.	.	.	.	4dd-X\)	.	.
.	.	4ee 4b- 4g\	.	.	.	.	.	.	.	.	.	.	.	.	.
4D-X/	.	.	.	.	.	.	.	.	.	.	.	.	4b-\	Bo-	.
.	.	4ee 4b- 4g\	.	.	.	.	.	.	.	.	.	.	.	.	.
4En/	.	.	.	.	.	.	.	.	.	.	.	.	4gn/	-że	.
.	.	[8ee 8b- 8g\	[	.	.	.	.	.	.	.	.	.	.	.	.
=88	=88	=88	=88	=88	=88	=88	=88	=88	=88	=88	=88	=88	=88	=88	=88
!	!	!	!	!	!	!LO:DY:a:rj	!	!	!LO:DY:a:rj	!	!	!LO:DY:a:rj	!	!	!LO:DY:a:rj
4G/	1F	8eenX] 8b- 8g\	.	4f/]	.	pp	4b-\]	.	pp	4dd-X\]	.	pp	(8en/L	ty	pp
.	.	4ee 4b- 4g\	.	.	.	.	.	.	.	.	.	.	8g/J)	.	.
4B-/	.	.	.	4f/	-dzą	.	4b-\	-dzą	.	4dd-\	-dzą	.	(8b-/L	nas	.
.	.	4ee 4b- 4g\	.	.	.	.	.	.	.	.	.	.	8dd-/J)	.	.
!	!	!	!	!LO:TX:a:i:t=ritard.	!	!	!LO:TX:a:i:t=ritard.	!	!	!LO:TX:a:i:t=ritard.	!	!	!LO:TX:a:i:t=ritard.	!	!
4d-/	.	.	.	4f/	bos-	.	4b-\	bos-	.	4dd-\	bos-	.	4.dd-X\	pom-	.
.	.	4ee 4b- 4g\	.	.	.	.	.	.	.	.	.	.	.	.	.
4en/	.	.	.	4f/	-ki	.	4b-\	-ki	.	4dd-\	-ki	.	.	.	.
.	.	8ee 8b- 8g\	.	.	.	.	.	.	.	.	.	.	8cc\	-ścić	.
*v	*v	*	*	*	*	*	*	*	*	*	*	*	*	*	*
=89	=89	=89	=89	=89	=89	=89	=89	=89	=89	=89	=89	=89	=89	=89
!	!	!LO:DY:t=%s dolce.	!	!	!	!	!	!	!	!	!	!	!	!
4FF/	8ff 8an 8f\	pp	[1f	gniew!	.	(1a-	gniew!	.	[1cc	gniew!	.	[1f	racz!	.
.	4ff 4a 4f\	.	.	.	.	.	.	.	.	.	.	.	.	.
4AAn/	.	.	.	.	.	.	.	.	.	.	.	.	.	.
.	4ff 4a 4f\	.	.	.	.	.	.	.	.	.	.	.	.	.
4C\	.	.	.	.	.	.	.	.	.	.	.	.	.	.
.	4ff 4a 4f\	.	.	.	.	.	.	.	.	.	.	.	.	.
4F\	.	.	.	.	.	.	.	.	.	.	.	.	.	.
.	[8ff 8a 8f\	.	.	.	.	.	.	.	.	.	.	.	.	.
=90	=90	=90	=90	=90	=90	=90	=90	=90	=90	=90	=90	=90	=90	=90
4An\	8ff] 8an 8f\	.	2f/]	.	.	2an/)	.	.	2cc\]	.	.	2f/]	.	.
.	4ff 4a 4f\	.	.	.	.	.	.	.	.	.	.	.	.	.
4c\	.	.	.	.	.	.	.	.	.	.	.	.	.	.
.	4ff 4a 4f\	.	.	.	.	.	.	.	.	.	.	.	.	.
4en\	.	.	2r	.	.	2r	.	.	2r	.	.	2r	.	.
.	4ff 4a 4f\	.	.	.	.	.	.	.	.	.	.	.	.	.
4f\	.	.	.	.	.	.	.	.	.	.	.	.	.	.
.	[8ff 8a 8f\	.	.	.	.	.	.	.	.	.	.	.	.	.
=91	=91	=91	=91	=91	=91	=91	=91	=91	=91	=91	=91	=91	=91	=91
!	!LO:SIC:v:n=2:s=8an	!	!	!	!	!	!	!	!	!	!	!	!	!
4Bn\	8ff] 8a- 8f\	.	1r	.	.	1r	.	.	1r	.	.	1r	.	.
!	!LO:SIC:v:n=2:s=4an	!	!	!	!	!	!	!	!	!	!	!	!	!
.	4ff 4a- 4f\	.	.	.	.	.	.	.	.	.	.	.	.	.
4c\	.	.	.	.	.	.	.	.	.	.	.	.	.	.
!	!LO:SIC:v:n=2:s=4an	!	!	!	!	!	!	!	!	!	!	!	!	!
.	4ff 4a- 4f\	.	.	.	.	.	.	.	.	.	.	.	.	.
4G#X\	.	.	.	.	.	.	.	.	.	.	.	.	.	.
!	!LO:SIC:v:n=2:s=4an	!	!	!	!	!	!	!	!	!	!	!	!	!
.	4ff 4a- 4f\	.	.	.	.	.	.	.	.	.	.	.	.	.
4An\	.	.	.	.	.	.	.	.	.	.	.	.	.	.
!	!LO:SIC:v:n=2:s=8an	!	!	!	!	!	!	!	!	!	!	!	!	!
.	[8ff 8a- 8f\	.	.	.	.	.	.	.	.	.	.	.	.	.
=92	=92	=92	=92	=92	=92	=92	=92	=92	=92	=92	=92	=92	=92	=92
!	!	!LO:HP:t=decres.	!	!	!	!	!	!	!	!	!	!	!	!
(4En\	8ff] 8anX 8f\	>	1r	.	.	1r	.	.	1r	.	.	1r	.	.
.	4ff 4a 4f\	.	.	.	.	.	.	.	.	.	.	.	.	.
4F\	.	.	.	.	.	.	.	.	.	.	.	.	.	.
.	4ff 4a 4f\	.	.	.	.	.	.	.	.	.	.	.	.	.
4C\	.	.	.	.	.	.	.	.	.	.	.	.	.	.
.	4ff 4a 4f\	.	.	.	.	.	.	.	.	.	.	.	.	.
4AAn/)	.	.	.	.	.	.	.	.	.	.	.	.	.	.
.	8ff 8a 8f\	.	.	.	.	.	.	.	.	.	.	.	.	.
==	==	==	==	==	==	==	==	==	==	==	==	==	==	==
*-	*-	*-	*-	*-	*-	*-	*-	*-	*-	*-	*-	*-	*-	*-
!!!system-decoration: s1[(s2,s3,s4)]{(s5,s6)}
!!!RDF**kern: > = above
!!!RDF**kern: < = below
!!!ENC: Katarzyna Serwa
!!!END: 2022-03-22
!!!ENC: Arek Malec
!!!END: 2022-03-21
